!!!!SEGMENT: pl-cz--iii-188--005_elsner-jozef--vesperae-c-op-36-laudate-domium.krn
!!!cenid: 18xx:232
!!!COM: Elsner, Józef
!!!COM-rismID:
!!!CDT: 1769/06/01-1854/04/18
!!!CNT: Polish
!!!OPR: Vesperae C op. 36
!!!OTL: Laudate Domium
!!!OMV: 005
!!!PDT: 1834
!!!AGN: Sacred; Vespers
!!!SMS-siglum: PL-CZ
!!!SMS-shelfmark: III-188
!!!SMS-shelfwork: 001-005 M
!!!NIFC-rismSourceID:
!!!NIFC-islandoraID: pl-cz:35484
!!!URL-pdf-islandora: https://repozytorium.nifc.pl/islandora/object/pl-cz%3A35484/datastream/PDF/view
!!!URL-scan:
!!!ONB-nifc:
!!!AIN: 1 alto 1 bass 2 clars 2 cor 1 fagot 1 flt 1 organ 1 soprn 1 tenor 1 timpa 1 viola 2 violn
!!!OMD:
!!!OMD-mod: Allegro
!!!key: F
**kern	**fba	**dynam	**kern	**dynam	**kern	**dynam	**kern	**dynam	**kern	**dynam	**kern	**text	**dynam	**kern	**text	**dynam	**kern	**text	**dynam	**kern	**text	**dynam	**kern	**kern	**dynam	**kern	**dynam	**kern	**dynam	**kern	**dynam	**kern	**dynam	**kern	**dynam
*part16	*	*part16	*part15	*part15	*part14	*part14	*part13	*part13	*part12	*part12	*part11	*part11	*part11	*part10	*part10	*part10	*part9	*part9	*part9	*part8	*part8	*part8	*part7	*part6	*part6	*part5	*part5	*part4	*	*part3	*part3	*part2	*part2	*part1	*part1
*group6	*	*	*group5	*	*group5	*	*group5	*	*group5	*	*group4	*group4	*	*group4	*group4	*	*group4	*group4	*	*group4	*group4	*	*group3	*group2	*	*group2	*	*group1	*	*group1	*	*group1	*	*group1	*
*staff16	*	*	*staff15	*	*staff14	*	*staff13	*	*staff12	*	*staff11	*staff11	*	*staff10	*staff10	*	*staff9	*staff9	*	*staff8	*staff8	*	*staff7	*staff6	*	*staff5	*	*staff4	*	*staff3	*	*staff2	*	*staff1	*
*I"Organo	*	*	*I"Baſso	*	*I"Viola	*	*I"Violino 2do	*	*I"Violino 1mo	*	*I"Baſso.	*	*	*I"Tenore.	*	*	*I"Alto.	*	*	*I"Canto.	*	*	*I"Tympani in C. G.	*I"Corno 2do	*	*I"Corno 1mo	*	*I"Fagotto	*	*I"Clarinetto 2do. in C.	*	*I"Clarinetto 1mo in C.	*	*I"Flauto.	*
*	*	*	*mI"Basso	*	*	*	*mI"Violino II	*	*mI"Violino I	*	*mI"Basso	*	*	*mI"Tenore	*	*	*mI"Alto	*	*	*mI"Soprano	*	*	*mI"Timpani	*mI"Corno II in F	*	*mI"Corno I in F	*	*mI"Fagotti I, II	*	*mI"Clarinetto II in C	*	*mI"Clarinetto I in C	*	*mI"Flauto	*
*I'org	*	*	*I'b	*	*I'vla	*	*I'vl II	*	*I'vl I	*	*I'B	*	*	*I'T	*	*	*I'A	*	*	*I'S	*	*	*I'timp	*I'cor II in F	*	*I'cor I in F	*	*I'fag I, II	*	*I'cl II in C	*	*I'cl I in C	*	*I'fl	*
*Iorgan	*	*	*I	*	*Iviola	*	*Ivioln	*	*Ivioln	*	*Ibass	*	*	*Itenor	*	*	*Ialto	*	*	*Isoprn	*	*	*Itimpa	*Icor	*	*Icor	*	*Ifagot	*	*Iclars	*	*Iclars	*	*Iflt	*
*ICklav	*	*	*ICstr	*	*ICstr	*	*ICstr	*	*ICstr	*	*ICvox	*	*	*ICvox	*	*	*ICvox	*	*	*ICvox	*	*	*ICidio	*ICbras	*	*ICbras	*	*ICww	*	*ICww	*	*ICww	*	*ICww	*
*IGcont	*	*	*	*	*	*	*	*	*	*	*	*	*	*	*	*	*	*	*	*	*	*	*	*	*	*	*	*	*	*	*	*	*	*	*
*clefF4	*	*	*clefF4	*	*clefC3	*	*clefG2	*	*clefG2	*	*clefF4	*	*	*clefC4	*	*	*clefC3	*	*	*clefC1	*	*	*clefF4	*clefG2	*	*clefG2	*	*clefF4	*	*clefG2	*	*clefG2	*	*clefG2	*
*	*	*	*	*	*	*	*	*	*	*	*	*	*	*mclefGv2	*	*	*mclefG2	*	*	*mclefG2	*	*	*	*	*	*	*	*	*	*	*	*	*	*	*
*	*	*	*	*	*	*	*	*	*	*	*	*	*	*	*	*	*	*	*	*	*	*	*	*ITrd4c7	*	*ITrd4c7	*	*	*	*	*	*	*	*	*
*k[b-]	*	*	*k[b-]	*	*k[b-]	*	*k[b-]	*	*k[b-]	*	*k[b-]	*	*	*k[b-]	*	*	*k[b-]	*	*	*k[b-]	*	*	*k[]	*k[b-]	*	*k[b-]	*	*k[b-]	*	*k[b-]	*	*k[b-]	*	*k[b-]	*
*F:	*	*	*F:	*	*F:	*	*F:	*	*F:	*	*F:	*	*	*F:	*	*	*F:	*	*	*F:	*	*	*	*	*	*	*	*F:	*	*F:	*	*F:	*	*F:	*
*M2/2	*	*	*M2/2	*	*M2/2	*	*M2/2	*	*M2/2	*	*M2/2	*	*	*M2/2	*	*	*M2/2	*	*	*M2/2	*	*	*M2/2	*M2/2	*	*M2/2	*	*M2/2	*	*M2/2	*	*M2/2	*	*M2/2	*
*met(c|)	*	*	*met(c|)	*	*met(c|)	*	*met(c|)	*	*met(c|)	*	*met(c|)	*	*	*met(c|)	*	*	*met(c|)	*	*	*met(c|)	*	*	*met(c|)	*met(c|)	*	*met(c|)	*	*met(c|)	*	*met(c|)	*	*met(c|)	*	*met(c|)	*
*mmet(c|)	*	*	*mmet(c|)	*	*mmet(c|)	*	*mmet(c|)	*	*mmet(c|)	*	*mmet(c|)	*	*	*mmet(c|)	*	*	*mmet(c|)	*	*	*mmet(c|)	*	*	*mmet(c|)	*mmet(c|)	*	*mmet(c|)	*	*mmet(c|)	*	*mmet(c|)	*	*mmet(c|)	*	*mmet(c|)	*
=1	=1	=1	=1	=1	=1	=1	=1	=1	=1	=1	=1	=1	=1	=1	=1	=1	=1	=1	=1	=1	=1	=1	=1	=1	=1	=1	=1	=1	=1	=1	=1	=1	=1	=1	=1
!	!	!	!	!	!	!LO:MO:null:mod=!LO&colon;DY&colon;ed=brack	!	!	!	!	!	!	!	!	!	!	!	!	!	!	!	!	!	!	!	!	!	!	!LO:MO:null:mod=!LO&colon;DY&colon;ed=brack	!	!	!	!	!	!
!LO:TX:a:t=Allegro:mod=	!	!LO:DY:rj	!LO:TX:a:t=Allegro:mod=	!LO:DY:rj	!LO:TX:a:t=Allegro:mod=	!	!LO:TX:a:t=Alegro:mod=	!LO:DY:rj	!LO:TX:a:t=Alegro:mod=	!LO:DY:rj	!LO:TX:a:t=Allegro.:mod=	!	!	!LO:TX:a:t=Allegro.:mod=	!	!	!LO:TX:a:t=Allegro.:mod=	!	!	!LO:TX:a:t=Allegro.:mod=	!	!	!	!LO:TX:a:t=Allegro. in F.:mod=	!LO:DY:rj	!LO:TX:a:t=Allegro in F.:mod=	!LO:DY:rj	!LO:TX:a:t=Allo:mod=	!	!LO:TX:a:t=Allegro in C.:mod=	!LO:DY:rj	!LO:TX:a:t=Allegro:mod=	!LO:DY:rj	!LO:TX:a:t=Alegro:mod=	!LO:DY:b:t=for
!	!	!	!	!	!	!LO:MO:null:mod=ff	!	!	!	!	!LO:TX:a:t=16.:mod=	!	!	!LO:TX:a:t=11.:mod=	!	!	!LO:TX:a:t=6.:mod=	!	!	!LO:TX:a:t=1.:mod=	!	!	!LO:TX:a:t=Tacet	!	!LO:MO:mod=f	!	!	!LO:TX:a:t= :mod=a 2	!LO:MO:null:mod=f	!	!LO:MO:mod=f	!LO:TX:a:t=in C.:mod=	!	!	!
2FF/	8_	ff	2FF/	ff	2F/	.	4a 4f/	ff	4ff 4a\	ff	1r	.	.	00r	.	.	00r	.	.	1r	.	.	1ryy	4A/	ff	4f\	f	2FF/	.	4a\	ff	4ff\	f	4fff\	f
.	.	.	.	.	.	.	8aL 8f/	.	8ffL 8a\	.	.	.	.	.	.	.	.	.	.	.	.	.	.	8A/L	.	8f\L	.	.	.	8a\L	.	8ff\L	.	8fff\L	.
.	.	.	.	.	.	.	8aJ 8f/	.	8ffJ 8a\	.	.	.	.	.	.	.	.	.	.	.	.	.	.	8A/J	.	8f\J	.	.	.	8a\J	.	8ff\J	.	8fff\J	.
4AA/	.	.	4AA/	.	4A\	.	4a 4f/	.	4ff 4a\	.	.	.	.	.	.	.	.	.	.	.	.	.	.	4A/	.	4f\	.	4AA/	.	4a\	.	4ff\	.	4fff\	.
4C/	.	.	4C/	.	4c\	.	4a 4f/	.	4ff 4a\	.	.	.	.	.	.	.	.	.	.	.	.	.	.	4A/	.	4f\	.	4C/	.	4a\	.	4ff\	.	4fff\	.
=2	=2	=2	=2	=2	=2	=2	=2	=2	=2	=2	=2	=2	=2	=2	=2	=2	=2	=2	=2	=2	=2	=2	=2	=2	=2	=2	=2	=2	=2	=2	=2	=2	=2	=2	=2
4F\	.	.	4F\	.	4f\	.	4a 4f/	.	4ff 4a\	.	1r	.	.	.	.	.	.	.	.	4r	.	.	1ryy	4A/	.	4f\	.	4F\	.	4a\	.	4ff\	.	4fff\	.
*clefC1	*	*	*	*	*	*	*	*	*	*	*	*	*	*	*	*	*	*	*	*	*	*	*	*	*	*	*	*	*	*	*	*	*	*	*
8ff/L	X	.	4r	.	4r	.	4r	.	8ff\L	.	.	.	.	.	.	.	.	.	.	8ff\L	Lau-	.	.	4r	.	4r	.	4r	.	4r	.	4r	.	4r	.
8ee/J	.	.	.	.	.	.	.	.	8ee\J	.	.	.	.	.	.	.	.	.	.	8ee\J	.	.	.	.	.	.	.	.	.	.	.	.	.	.	.
4dd/	.	.	2r	.	2r	.	2r	.	4dd\	.	.	.	.	.	.	.	.	.	.	4dd\	-da-	.	.	2r	.	2r	.	2r	.	2r	.	2r	.	2r	.
4cc/	.	.	.	.	.	.	.	.	4cc\	.	.	.	.	.	.	.	.	.	.	4cc\	-te	.	.	.	.	.	.	.	.	.	.	.	.	.	.
=3	=3	=3	=3	=3	=3	=3	=3	=3	=3	=3	=3	=3	=3	=3	=3	=3	=3	=3	=3	=3	=3	=3	=3	=3	=3	=3	=3	=3	=3	=3	=3	=3	=3	=3	=3
!	!	!	!LO:TX:a:t=9.:mod=	!	!LO:TX:a:t=9.:mod=	!	!LO:TX:a:t=4.:mod=	!	!	!	!	!	!	!	!	!	!	!	!	!	!	!	!	!LO:TX:a:t=21.:mod=	!	!LO:TX:a:t=21.:mod=	!	!LO:TX:a:t=9.:mod=	!	!LO:TX:a:t=20.:mod=	!	!LO:TX:a:t=19.:mod=	!	!LO:TX:a:t=19.:mod=	!
4b-/	.	.	00r	.	00r	.	00r	.	4b-\	.	1r	.	.	.	.	.	.	.	.	4b-\	Do-	.	1ryy	1r	.	1r	.	00r	.	1r	.	1r	.	00r	.
8a/L	.	.	.	.	.	.	.	.	8a\L	.	.	.	.	.	.	.	.	.	.	8a\	-mi-	.	.	.	.	.	.	.	.	.	.	.	.	.	.
8g/J	.	.	.	.	.	.	.	.	8g\J	.	.	.	.	.	.	.	.	.	.	8g\	-num	.	.	.	.	.	.	.	.	.	.	.	.	.	.
4cc/	.	.	.	.	.	.	.	.	4cc\	.	.	.	.	.	.	.	.	.	.	4cc\	o-	.	.	.	.	.	.	.	.	.	.	.	.	.	.
[>4b-/	.	.	.	.	.	.	.	.	[4b-\	.	.	.	.	.	.	.	.	.	.	4b-\	-mnes	.	.	.	.	.	.	.	.	.	.	.	.	.	.
!	!	!	!	!	!	!	!	!	!	!	!	!	!	!	!	!	!	!	!	!LO:LB:g=original	!	!	!	!	!	!	!	!	!	!	!	!	!	!	!
=4	=4	=4	=4	=4	=4	=4	=4	=4	=4	=4	=4	=4	=4	=4	=4	=4	=4	=4	=4	=4	=4	=4	=4	=4	=4	=4	=4	=4	=4	=4	=4	=4	=4	=4	=4
4b-/]	.	.	.	.	.	.	.	.	4b-\]	.	1r	.	.	.	.	.	.	.	.	(4b-\	gen-	.	1ryy	1r	.	1r	.	.	.	1r	.	1r	.	.	.
8a/L	.	.	.	.	.	.	.	.	8a\L	.	.	.	.	.	.	.	.	.	.	8a\L	.	.	.	.	.	.	.	.	.	.	.	.	.	.	.
8g/J	.	.	.	.	.	.	.	.	8g\J	.	.	.	.	.	.	.	.	.	.	8g\J)	.	.	.	.	.	.	.	.	.	.	.	.	.	.	.
!	!	!	!	!	!	!	!	!	!	!	!	!	!	!	!	!	!	!	!	!	!LO:MO:mod=-tes&colon;	!	!	!	!	!	!	!	!	!	!	!	!	!	!
4a/	.	.	.	.	.	.	.	.	4a\	.	.	.	.	.	.	.	.	.	.	4a\	-tes	.	.	.	.	.	.	.	.	.	.	.	.	.	.
[4cc/	.	.	.	.	.	.	.	.	[4cc\	.	.	.	.	.	.	.	.	.	.	4cc\	lau-	.	.	.	.	.	.	.	.	.	.	.	.	.	.
=5	=5	=5	=5	=5	=5	=5	=5	=5	=5	=5	=5	=5	=5	=5	=5	=5	=5	=5	=5	=5	=5	=5	=5	=5	=5	=5	=5	=5	=5	=5	=5	=5	=5	=5	=5
4cc/]	.	.	.	.	.	.	.	.	4cc\]	.	1r	.	.	00r	.	.	0r	.	.	4cc\	-da-	.	1ryy	1r	.	1r	.	.	.	1r	.	1r	.	.	.
4bn/	.	.	.	.	.	.	.	.	4bn\	.	.	.	.	.	.	.	.	.	.	4bn\	-te	.	.	.	.	.	.	.	.	.	.	.	.	.	.
4.cc/	.	.	.	.	.	.	.	.	4.cc\	.	.	.	.	.	.	.	.	.	.	4.cc\	e-	.	.	.	.	.	.	.	.	.	.	.	.	.	.
16dd/LL	.	.	.	.	.	.	.	.	16dd\LL	.	.	.	.	.	.	.	.	.	.	16dd\LL	-um	.	.	.	.	.	.	.	.	.	.	.	.	.	.
16ee/JJ	.	.	.	.	.	.	.	.	16ee\JJ	.	.	.	.	.	.	.	.	.	.	16ee\JJ	.	.	.	.	.	.	.	.	.	.	.	.	.	.	.
!	!	!	!	!	!	!	!	!	!LO:LB:g=original	!	!	!	!	!	!	!	!	!	!	!	!	!	!	!	!	!	!	!	!	!	!	!	!	!	!
=6	=6	=6	=6	=6	=6	=6	=6	=6	=6	=6	=6	=6	=6	=6	=6	=6	=6	=6	=6	=6	=6	=6	=6	=6	=6	=6	=6	=6	=6	=6	=6	=6	=6	=6	=6
!	!	!	!	!	!	!	!	!	!	!	!	!	!	!	!	!	!	!	!	!	!LO:MO:mod=o-	!	!	!	!	!	!	!	!	!	!	!	!	!	!
4.ff/	.	.	.	.	.	.	.	.	4.ff\	.	1r	.	.	.	.	.	.	.	.	4.ff\	om-	.	1ryy	1r	.	1r	.	.	.	1r	.	1r	.	.	.
!	!	!	!	!	!	!	!	!	!	!	!	!	!	!	!	!	!	!	!	!	!LO:MO:mod=-mnes	!	!	!	!	!	!	!	!	!	!	!	!	!	!
8ff/	.	.	.	.	.	.	.	.	8ff\	.	.	.	.	.	.	.	.	.	.	8ff\	-nes	.	.	.	.	.	.	.	.	.	.	.	.	.	.
4.ff/	.	.	.	.	.	.	.	.	4.ff\	.	.	.	.	.	.	.	.	.	.	4.ff\	po-	.	.	.	.	.	.	.	.	.	.	.	.	.	.
8ff/	.	.	.	.	.	.	.	.	8ff\	.	.	.	.	.	.	.	.	.	.	8ff\	-pu-	.	.	.	.	.	.	.	.	.	.	.	.	.	.
!LO:LB:g=original	!	!	!	!	!	!	!	!	!	!	!	!	!	!	!	!	!	!	!	!	!	!	!	!	!	!	!	!	!	!	!	!	!	!	!
=7	=7	=7	=7	=7	=7	=7	=7	=7	=7	=7	=7	=7	=7	=7	=7	=7	=7	=7	=7	=7	=7	=7	=7	=7	=7	=7	=7	=7	=7	=7	=7	=7	=7	=7	=7
*^	*	*	*	*	*	*	*	*	*	*	*	*	*	*	*	*	*	*	*	*	*	*	*	*	*	*	*	*	*	*	*	*	*	*	*
*	*	*	*	*	*	*	*	*	*	*2\right	*	*	*	*	*	*	*	*	*	*	*	*	*	*	*	*	*	*	*	*	*	*	*	*	*	*
!	!	!	!	!	!	!	!	!	!	!	!	!	!	!	!	!	!	!	!	!	!	!LO:MO:mod=-li,	!	!	!	!	!	!	!	!	!	!	!	!	!	!
2ee/	4r	.	.	00r	.	00r	.	4r	.	2ee\	.	1r	.	.	.	.	.	4r	.	.	2ee\	-li	.	1ryy	1r	.	1r	.	00r	.	1r	.	1r	.	00r	.
.	8cc\L	.	.	.	.	.	.	8cc\L	.	.	.	.	.	.	.	.	.	8cc\L	Lau-	.	.	.	.	.	.	.	.	.	.	.	.	.	.	.	.	.
.	8bn\J	.	.	.	.	.	.	8bn\J	.	.	.	.	.	.	.	.	.	8bn\J	.	.	.	.	.	.	.	.	.	.	.	.	.	.	.	.	.	.
4ff/	4a\	.	.	.	.	.	.	4a\	.	(4ff\	.	.	.	.	.	.	.	4a\	-da-	.	(4ff\	lau-	.	.	.	.	.	.	.	.	.	.	.	.	.	.
4ee/	4g\	.	.	.	.	.	.	4g\	.	4ee\)	.	.	.	.	.	.	.	4g\	-te	.	4ee\)	.	.	.	.	.	.	.	.	.	.	.	.	.	.	.
!	!	!	!	!	!	!	!	!	!	!	!	!	!	!	!	!	!	!	!	!	!LO:LB:g=original	!	!	!	!	!	!	!	!	!	!	!	!	!	!	!
=8	=8	=8	=8	=8	=8	=8	=8	=8	=8	=8	=8	=8	=8	=8	=8	=8	=8	=8	=8	=8	=8	=8	=8	=8	=8	=8	=8	=8	=8	=8	=8	=8	=8	=8	=8	=8
2aa/	4f\	.	.	.	.	.	.	4f/	.	2aa\	.	1r	.	.	.	.	.	4f\	Do-	.	(2aa\	-da-	.	1ryy	1r	.	1r	.	.	.	1r	.	1r	.	.	.
.	8e\L	.	.	.	.	.	.	8e/L	.	.	.	.	.	.	.	.	.	8e\	-mi-	.	.	.	.	.	.	.	.	.	.	.	.	.	.	.	.	.
.	8d\J	.	.	.	.	.	.	8d/J	.	.	.	.	.	.	.	.	.	8d\	-num	.	.	.	.	.	.	.	.	.	.	.	.	.	.	.	.	.
2bn/	4g\	.	.	.	.	.	.	4g/	.	2bn\	.	.	.	.	.	.	.	4g\	o-	.	2bn\)	.	.	.	.	.	.	.	.	.	.	.	.	.	.	.
.	[>4f\	.	.	.	.	.	.	[4f/	.	.	.	.	.	.	.	.	.	4f\	-mnes	.	.	.	.	.	.	.	.	.	.	.	.	.	.	.	.	.
!	!	!	!	!	!	!	!	!LO:LB:g=original	!	!	!	!	!	!	!	!	!	!LO:LB:g=original	!	!	!	!	!	!	!	!	!	!	!	!	!	!	!	!	!	!
=9	=9	=9	=9	=9	=9	=9	=9	=9	=9	=9	=9	=9	=9	=9	=9	=9	=9	=9	=9	=9	=9	=9	=9	=9	=9	=9	=9	=9	=9	=9	=9	=9	=9	=9	=9	=9
2cc/	4f\]	.	.	.	.	.	.	4f/]	.	2cc\	.	1r	.	.	0r	.	.	(4f\	gen-	.	2cc\	-te	.	1ryy	1r	.	1r	.	.	.	1r	.	1r	.	.	.
.	8e\L	.	.	.	.	.	.	8e/L	.	.	.	.	.	.	.	.	.	8e\L	.	.	.	.	.	.	.	.	.	.	.	.	.	.	.	.	.	.
.	8d\J	.	.	.	.	.	.	8d/J	.	.	.	.	.	.	.	.	.	8d\J)	.	.	.	.	.	.	.	.	.	.	.	.	.	.	.	.	.	.
!	!	!	!	!	!	!	!	!	!	!	!	!	!	!	!	!	!	!	!LO:MO:mod=-tes&colon;	!	!	!	!	!	!	!	!	!	!	!	!	!	!	!	!	!
4g/	4e\	.	.	.	.	.	.	4e/	.	(4g\	.	.	.	.	.	.	.	4e\	-tes	.	(4g\	e-	.	.	.	.	.	.	.	.	.	.	.	.	.	.
!	!	!	!	!	!	!	!	!	!	!	!	!	!	!	!	!	!	!	!	!	!LO:SIC:s=4a\	!	!	!	!	!	!	!	!	!	!	!	!	!	!	!
4a/	[>4f\	.	.	.	.	.	.	[4f/	.	4a\)	.	.	.	.	.	.	.	4f\	lau-	.	4a\)	.	.	.	.	.	.	.	.	.	.	.	.	.	.	.
=10	=10	=10	=10	=10	=10	=10	=10	=10	=10	=10	=10	=10	=10	=10	=10	=10	=10	=10	=10	=10	=10	=10	=10	=10	=10	=10	=10	=10	=10	=10	=10	=10	=10	=10	=10	=10
2b-/	4f\]	.	.	.	.	.	.	4f/]	.	2b-\	.	1r	.	.	.	.	.	4f\	-da-	.	2b-\	.	.	1ryy	1r	.	1r	.	.	.	1r	.	1r	.	.	.
.	4e\	.	.	.	.	.	.	4e/	.	.	.	.	.	.	.	.	.	4e\	-te	.	.	.	.	.	.	.	.	.	.	.	.	.	.	.	.	.
!	!	!	!	!	!	!	!	!LO:SIC:s=(4.f/	!	!	!	!	!	!	!	!	!	!	!	!	!LO:SIC:s=4.a\)	!	!	!	!	!	!	!	!	!	!	!	!	!	!	!
4.a/	4.f\	.	.	.	.	.	.	4.f/	.	(4.a\	.	.	.	.	.	.	.	4.f\	e-	.	4.a\	.	.	.	.	.	.	.	.	.	.	.	.	.	.	.
!	!	!	!	!	!	!	!	!	!	!	!	!	!	!	!	!	!	!	!	!	!LO:SIC:s=16b-\LL	!	!	!	!	!	!	!	!	!	!	!	!	!	!	!
16b-/LL	16g\LL	.	.	.	.	.	.	16g/LL	.	16b-\LL	.	.	.	.	.	.	.	16g\LL	-um	.	(16b-\LL	-um	.	.	.	.	.	.	.	.	.	.	.	.	.	.
!	!	!	!	!	!	!	!	!LO:SIC:s=16a/JJ)	!	!	!	!	!	!	!	!	!	!	!	!	!LO:SIC:s=16cc\JJ	!	!	!	!	!	!	!	!	!	!	!	!	!	!	!
16cc/JJ	16a\JJ	.	.	.	.	.	.	16a/JJ	.	16cc\JJ)	.	.	.	.	.	.	.	16a\JJ	.	.	16cc\JJ)	.	.	.	.	.	.	.	.	.	.	.	.	.	.	.
=11	=11	=11	=11	=11	=11	=11	=11	=11	=11	=11	=11	=11	=11	=11	=11	=11	=11	=11	=11	=11	=11	=11	=11	=11	=11	=11	=11	=11	=11	=11	=11	=11	=11	=11	=11	=11
!	!	!	!	!	!	!	!	!	!	!	!	!	!	!	!	!	!	!	!LO:MO:mod=o-	!	!	!LO:MO:mod=o-	!	!	!	!	!	!	!	!	!	!	!	!	!	!
4.dd/	4.b-\	.	.	1r	.	1r	.	4.b-\	.	4.dd\	.	1r	.	.	1r	.	.	4.b-\	om-	.	4.dd\	om-	.	1ryy	1r	.	1r	.	1r	.	1r	.	1r	.	00r	.
!	!	!	!	!	!	!	!	!	!	!	!	!	!	!	!	!	!	!	!LO:MO:mod=-mnes	!	!	!LO:MO:mod=-mnes	!	!	!	!	!	!	!	!	!	!	!	!	!	!
8dd/	8b-\	.	.	.	.	.	.	8b-\	.	8dd\	.	.	.	.	.	.	.	8b-\	-nes	.	8dd\	-nes	.	.	.	.	.	.	.	.	.	.	.	.	.	.
4.ee/	4.b-\	.	.	.	.	.	.	4.b-\	.	4.ee\	.	.	.	.	.	.	.	4.b-\	po-	.	4.ee\	po-	.	.	.	.	.	.	.	.	.	.	.	.	.	.
8ee/	8b-\	.	.	.	.	.	.	8b-\	.	8ee\	.	.	.	.	.	.	.	8b-\	-pu-	.	8ee\	-pu-	.	.	.	.	.	.	.	.	.	.	.	.	.	.
!	!	!	!	!	!	!	!	!	!	!	!	!	!	!	!	!	!	!LO:LB:g=original	!	!	!	!	!	!	!	!	!	!	!	!	!	!	!	!	!	!
=12	=12	=12	=12	=12	=12	=12	=12	=12	=12	=12	=12	=12	=12	=12	=12	=12	=12	=12	=12	=12	=12	=12	=12	=12	=12	=12	=12	=12	=12	=12	=12	=12	=12	=12	=12	=12
*	*	*	*	*	*	*	*	*2\right	*	*	*	*	*	*	*	*	*	*	*	*	*	*	*	*	*	*	*	*	*clefC4	*	*	*	*	*	*	*
!	!	!	!	!	!	!	!	!	!	!	!	!	!	!	!	!	!	!	!LO:MO:mod=-li,	!	!	!LO:MO:mod=-li,	!	!	!	!	!	!	!	!	!	!	!	!	!	!
4ff/	4a\	.	.	4r	.	4r	.	2a\	.	[1ff	.	1r	.	.	4r	.	.	2a\	-li	.	[1ff	-li	.	1ryy	1r	.	1r	.	4r	.	1r	.	1r	.	.	.
*v	*v	*	*	*	*	*	*	*	*	*	*	*	*	*	*	*	*	*	*	*	*	*	*	*	*	*	*	*	*	*	*	*	*	*	*	*
*clefC4	*	*	*clefC4	*	*	*	*	*	*	*	*	*	*	*	*	*	*	*	*	*	*	*	*	*	*	*	*	*	*	*	*	*	*	*	*
!LO:TX:t=P:problem:bemol przy kluczu	!	!	!	!	!	!	!	!	!	!	!	!	!	!	!	!	!	!	!	!	!	!	!	!	!	!	!	!	!	!	!	!	!	!	!
!LO:TX:b:t=Violo&colon;:mod=	!	!	!	!	!	!	!	!	!	!	!	!	!	!	!	!	!	!	!	!	!	!	!	!	!	!	!	!	!	!	!	!	!	!	!
8f\L	8 3	.	8f\L	.	8f\L	.	.	.	.	.	.	.	.	8f\L	Lau-	.	.	.	.	.	.	.	.	.	.	.	.	8f\L	.	.	.	.	.	.	.
8e\J	.	.	8e\J	.	8e\J	.	.	.	.	.	.	.	.	8e\J	.	.	.	.	.	.	.	.	.	.	.	.	.	8e\J	.	.	.	.	.	.	.
4d\	6	.	4d\	.	4d\	.	4b-\	.	.	.	.	.	.	4d\	-da-	.	(4b-\	lau-	.	.	.	.	.	.	.	.	.	4d\	.	.	.	.	.	.	.
4c\	6	.	4c\	.	4c\	.	4a\	.	.	.	.	.	.	4c\	-te	.	4a\)	.	.	.	.	.	.	.	.	.	.	4c\	.	.	.	.	.	.	.
!LO:TX:b:rj:t=V&colon; S&colon;:mod=	!	!	!	!	!	!	!	!	!	!	!	!	!	!	!	!	!	!	!	!	!	!	!	!	!	!	!	!	!	!	!	!	!	!	!
!LO:PB:g=original	!	!	!	!	!	!	!	!	!	!	!	!	!	!	!	!	!	!	!	!	!	!	!	!	!	!	!	!	!	!	!	!	!	!	!
=13	=13	=13	=13	=13	=13	=13	=13	=13	=13	=13	=13	=13	=13	=13	=13	=13	=13	=13	=13	=13	=13	=13	=13	=13	=13	=13	=13	=13	=13	=13	=13	=13	=13	=13	=13
4B-\	5 3_	.	4B-\	.	4B-\	.	2dd\	.	4ff\]	.	1r	.	.	4B-\	Do-	.	(2dd\	-da-	.	4ff\]	.	.	1ryy	1r	.	1r	.	4B-\	.	1r	.	1r	.	.	.
!	!	!	!	!	!	!	!	!	!	!	!	!	!	!	!	!	!	!	!	!LO:SIC:s=(2gg\	!	!	!	!	!	!	!	!	!	!	!	!	!	!	!
8A\L	.	.	8A\L	.	8A\L	.	.	.	2gg\	.	.	.	.	8A\	-mi-	.	.	.	.	2gg\	lau-	.	.	.	.	.	.	8A\L	.	.	.	.	.	.	.
8G\J	6_ _	.	8G\J	.	8G\J	.	.	.	.	.	.	.	.	8G\	-num	.	.	.	.	.	.	.	.	.	.	.	.	8G\J	.	.	.	.	.	.	.
4c\	_ 3_	.	4c\	.	4c\	.	(2e/	.	.	.	.	.	.	4c\	o-	.	2e\)	.	.	.	.	.	.	.	.	.	.	4c\	.	.	.	.	.	.	.
[4B-\	2 _	.	[4B-\	.	[4B-\	.	.	.	[4cc\	.	.	.	.	[4B-\	-mnes	.	.	.	.	[4cc\	.	.	.	.	.	.	.	4B-\	.	.	.	.	.	.	.
!	!	!	!LO:LB:g=original	!	!	!	!	!	!LO:LB:g=original	!	!	!	!	!LO:LB:g=original	!	!	!	!	!	!LO:LB:g=original	!	!	!	!	!	!	!	!	!	!	!	!	!	!	!
=14	=14	=14	=14	=14	=14	=14	=14	=14	=14	=14	=14	=14	=14	=14	=14	=14	=14	=14	=14	=14	=14	=14	=14	=14	=14	=14	=14	=14	=14	=14	=14	=14	=14	=14	=14
!	!	!	!	!	!	!	!	!	!	!	!	!	!	!	!	!	!	!	!	!LO:SIC:s=4cc\])	!	!	!	!	!	!	!	!	!	!	!	!	!	!	!
4B-\]	2 5_	.	4B-\]	.	4B-\]	.	2.f/)	.	4cc\]	.	1r	.	.	4B-\]	.	.	2.f\	-te	.	4cc\]	.	.	1ryy	1r	.	1r	.	4B-\	.	1r	.	1r	.	.	.
!	!	!	!	!	!	!	!	!	!	!	!	!	!	!	!	!	!	!	!	!LO:SIC:s=(2ff\	!	!	!	!	!	!	!	!	!	!	!	!	!	!	!
8A\L	8 _	.	8A\L	.	8A/L	.	.	.	2ff\	.	.	.	.	8A\L	gen-	.	.	.	.	2ff\	-da-	.	.	.	.	.	.	8A\L	.	.	.	.	.	.	.
8G\J	.	.	8G\J	.	8G/J	.	.	.	.	.	.	.	.	8G\J	.	.	.	.	.	.	.	.	.	.	.	.	.	8G\J	.	.	.	.	.	.	.
!	!	!	!	!	!	!	!	!	!	!	!	!	!	!	!LO:MO:mod=-tes&colon;	!	!	!	!	!	!	!	!	!	!	!	!	!	!	!	!	!	!	!	!
4A\	.	.	4A\	.	4A\	.	.	.	.	.	.	.	.	4A\	-tes	.	.	.	.	.	.	.	.	.	.	.	.	4A\	.	.	.	.	.	.	.
!	!	!	!	!	!	!	!	!	!	!	!	!	!	!	!	!	!LO:SIC:s=(4g\	!	!	!	!	!	!	!	!	!	!	!	!	!	!	!	!	!	!
[4c\	10_ 5	.	[4c\	.	[4c\	.	4g/	.	[4ee\	.	.	.	.	4c\	lau-	.	4g\	e-	.	[4ee\	.	.	.	.	.	.	.	4c\	.	.	.	.	.	.	.
!	!	!	!	!	!LO:LB:g=original	!	!	!	!	!	!	!	!	!	!	!	!	!	!	!	!	!	!	!	!	!	!	!	!	!	!	!	!	!	!
=15	=15	=15	=15	=15	=15	=15	=15	=15	=15	=15	=15	=15	=15	=15	=15	=15	=15	=15	=15	=15	=15	=15	=15	=15	=15	=15	=15	=15	=15	=15	=15	=15	=15	=15	=15
4c\]	_ 4_	.	4c\]	.	4c\]	.	2f/	.	4ee\]	.	1r	.	.	4c\	-da-	.	2f\	.	.	4ee\]	.	.	1ryy	1r	.	1r	.	4c\	.	1r	.	1r	.	00r	.
!	!	!	!	!	!	!	!	!	!	!	!	!	!	!	!	!	!	!	!	!LO:SIC:s=2dd\)	!	!	!	!	!	!	!	!	!	!	!	!	!	!	!
4Bn\	3_ _	.	4Bn\	.	4Bn\	.	.	.	2dd\	.	.	.	.	4Bn\	-te	.	.	.	.	2dd\	.	.	.	.	.	.	.	4Bn\	.	.	.	.	.	.	.
!	!	!	!	!	!	!	!	!	!	!	!	!	!	!	!	!	!LO:SIC:s=4.e\)	!	!	!	!	!	!	!	!	!	!	!	!	!	!	!	!	!	!
4.c\	_ 3	.	4.c\	.	(4.c\	.	4.e/	.	.	.	.	.	.	4.c\	e-	.	4.e\	.	.	.	.	.	.	.	.	.	.	4.c\	.	.	.	.	.	.	.
.	.	.	.	.	.	.	.	.	4cc\	.	.	.	.	.	.	.	.	.	.	4cc\	-te	.	.	.	.	.	.	.	.	.	.	.	.	.	.
16d\LL	8 3	.	(16d\LL	.	16d\LL	.	(16f/LL	.	.	.	.	.	.	16d\LL	-um	.	16f\LL	-um	.	.	.	.	.	.	.	.	.	(16d\LL	.	.	.	.	.	.	.
16e\JJ	_ 3	.	16e\JJ	.	16e\JJ)	.	16g/JJ)	.	.	.	.	.	.	16e\JJ	.	.	16g\JJ	.	.	.	.	.	.	.	.	.	.	16e\JJ)	.	.	.	.	.	.	.
!	!	!	!	!	!	!	!LO:LB:g=original	!	!	!	!	!	!	!	!	!	!LO:LB:g=original	!	!	!	!	!	!	!	!	!	!	!LO:LB:g=original	!	!	!	!	!	!	!
=16	=16	=16	=16	=16	=16	=16	=16	=16	=16	=16	=16	=16	=16	=16	=16	=16	=16	=16	=16	=16	=16	=16	=16	=16	=16	=16	=16	=16	=16	=16	=16	=16	=16	=16	=16
!	!	!	!	!	!	!	!	!	!	!	!	!	!	!	!	!	!	!	!	!	!LO:MO:mod=o-	!	!	!	!	!	!	!LO:N:vis=4	!	!	!	!	!	!	!
4.f\	5_ 3	.	4.f\)	.	4.f\	.	4.a/	.	4.cc\	.	1r	.	.	4.f\	o-	.	4.a\	o-	.	4.cc\	om-	.	1ryy	1r	.	1r	.	4.f\	.	1r	.	1r	.	.	.
!	!	!	!	!	!	!	!	!	!	!	!	!	!	!	!	!	!	!	!	!	!LO:MO:mod=-mnes	!	!	!	!	!	!	!	!	!	!	!	!	!	!
8f\	.	.	8f\	.	8f\	.	8a/	.	8cc\	.	.	.	.	8f\	-mnes	.	8a\	-mnes	.	8cc\	-nes	.	.	.	.	.	.	8f\	.	.	.	.	.	.	.
!	!	!	!	!	!	!	!	!	!	!	!	!	!	!	!	!	!	!	!	!	!	!	!	!	!	!	!	!LO:N:vis=4	!	!	!	!	!	!	!
4.f\	6_ n4	.	4.f\	.	4.f\	.	4.bn\	.	4.dd\	.	.	.	.	4.f\	po-	.	4.bn\	po-	.	4.dd\	po-	.	.	.	.	.	.	4.f\	.	.	.	.	.	.	.
8f\	.	.	8f\	.	8f\	.	8b\	.	8dd\	.	.	.	.	8f\	-pu-	.	8b\	-pu-	.	8dd\	-pu-	.	.	.	.	.	.	8f\	.	.	.	.	.	.	.
!	!	!	!	!	!	!	!	!	!	!	!	!	!	!LO:LB:g=original	!	!	!	!	!	!	!	!	!	!	!	!	!	!	!	!	!	!	!	!	!
=17	=17	=17	=17	=17	=17	=17	=17	=17	=17	=17	=17	=17	=17	=17	=17	=17	=17	=17	=17	=17	=17	=17	=17	=17	=17	=17	=17	=17	=17	=17	=17	=17	=17	=17	=17
*	*	*	*	*	*2\right	*	*	*	*	*	*	*	*	*	*	*	*	*	*	*	*	*	*	*	*	*	*	*	*	*	*	*	*	*	*
!	!	!	!	!	!	!	!	!	!	!	!	!	!	!	!LO:MO:mod=-li,	!	!	!LO:MO:mod=-li,	!	!	!LO:MO:mod=-li,	!	!	!	!	!	!	!LO:TX:a:t=5.:mod=	!	!	!	!	!	!	!
4e\	6	.	4e\	.	2e\	.	[1cc	.	2cc\	.	4r	.	.	2e\	-li	.	[1cc	-li	.	2cc\	-li	.	1ryy	1r	.	1r	.	1r	.	1r	.	1r	.	.	.
*clefF4	*	*	*clefF4	*	*	*	*	*	*	*	*	*	*	*	*	*	*	*	*	*	*	*	*	*	*	*	*	*	*	*	*	*	*	*	*
!LO:TX:b:t=C&colon; Baſ:mod=	!	!	!	!	!	!	!	!	!	!	!	!	!	!	!	!	!	!	!	!	!	!	!	!	!	!	!	!	!	!	!	!	!	!	!
8c\L	8_ 3	.	8c\L	.	.	.	.	.	.	.	8c\L	Lau-	.	.	.	.	.	.	.	.	.	.	.	.	.	.	.	.	.	.	.	.	.	.	.
8Bn\J	.	.	8Bn\J	.	.	.	.	.	.	.	8Bn\J	.	.	.	.	.	.	.	.	.	.	.	.	.	.	.	.	.	.	.	.	.	.	.	.
!	!	!	!	!	!	!	!	!	!	!	!	!	!	!	!LO:MO:mod=lau-	!	!	!	!	!	!	!	!	!	!	!	!	!	!	!	!	!	!	!	!
4A\	_ 6	.	4A\	.	4f\	.	.	.	2r	.	4A\	-da-	.	(4f\	Lau-	.	.	.	.	2r	.	.	.	.	.	.	.	.	.	.	.	.	.	.	.
4G\	_ 6	.	4G\	.	4e\	.	.	.	.	.	4G\	-te	.	4e\)	.	.	.	.	.	.	.	.	.	.	.	.	.	.	.	.	.	.	.	.	.
!LO:LB:g=original	!	!	!	!	!	!	!	!	!	!	!	!	!	!	!	!	!	!	!	!	!	!	!	!	!	!	!	!	!	!	!	!	!	!	!
=18	=18	=18	=18	=18	=18	=18	=18	=18	=18	=18	=18	=18	=18	=18	=18	=18	=18	=18	=18	=18	=18	=18	=18	=18	=18	=18	=18	=18	=18	=18	=18	=18	=18	=18	=18
!	!	!	!	!	!	!	!	!	!LO:TX:a:t=4.:mod=	!	!	!	!	!LO:SIC:s=(2a\	!	!	!	!	!	!LO:TX:a:t=4.:mod=	!	!	!	!	!	!	!	!	!	!	!	!	!	!	!
4F\	_ 3_	.	4F\	.	2a\	.	4cc\]	.	00r	.	4F\	Do-	.	2a\	-da-	.	4cc\]	.	.	00r	.	.	1ryy	1r	.	1r	.	1r	.	1r	.	1r	.	.	.
!	!	!	!	!	!	!	!	!	!	!	!	!	!	!	!	!	!LO:SIC:s=(2dd\	!	!	!	!	!	!	!	!	!	!	!	!	!	!	!	!	!	!
8E\L	#6|_ _	.	8E\L	.	.	.	2dd\	.	.	.	8E\	-mi-	.	.	.	.	2dd\	lau-	.	.	.	.	.	.	.	.	.	.	.	.	.	.	.	.	.
8D\J	.	.	8D\J	.	.	.	.	.	.	.	8D\	-num	.	.	.	.	.	.	.	.	.	.	.	.	.	.	.	.	.	.	.	.	.	.	.
!	!	!	!	!	!	!	!	!	!	!	!	!	!	!LO:SIC:s=2Bn\)	!	!	!	!	!	!	!	!	!	!	!	!	!	!	!	!	!	!	!	!	!
4G\	_ 3_	.	4G\	.	2Bn\	.	.	.	.	.	4G\	o-	.	2Bn\	.	.	.	.	.	.	.	.	.	.	.	.	.	.	.	.	.	.	.	.	.
[4F\	2_ _	.	[4F\	.	.	.	[>4g/	.	.	.	4F\	-mnes	.	.	.	.	[4g\	.	.	.	.	.	.	.	.	.	.	.	.	.	.	.	.	.	.
!	!	!	!LO:LB:g=original	!	!	!	!	!	!	!	!LO:LB:g=original	!	!	!	!	!	!	!	!	!	!	!	!	!	!	!	!	!	!	!	!	!	!	!	!
=19	=19	=19	=19	=19	=19	=19	=19	=19	=19	=19	=19	=19	=19	=19	=19	=19	=19	=19	=19	=19	=19	=19	=19	=19	=19	=19	=19	=19	=19	=19	=19	=19	=19	=19	=19
!	!	!	!	!	!	!	!	!	!	!	!	!	!	!	!	!	!LO:SIC:s=4g\])	!	!	!	!	!	!	!	!	!	!	!	!	!	!	!	!	!	!
4F\]	_ 5_	.	4F\]	.	2c\	.	4g/]	.	.	.	(4F\	gen-	.	2c\	-te	.	4g\]	.	.	.	.	.	1ryy	1r	.	1r	.	1r	.	1r	.	1r	.	0r	.
!	!	!	!	!	!	!	!	!	!	!	!	!	!	!	!	!	!LO:SIC:s=(2cc\	!	!	!	!	!	!	!	!	!	!	!	!	!	!	!	!	!	!
8E\L	10_ _	.	8E\L	.	.	.	2cc\	.	.	.	8E\L	.	.	.	.	.	2cc\	-da-	.	.	.	.	.	.	.	.	.	.	.	.	.	.	.	.	.
8D\J	.	.	8D\J	.	.	.	.	.	.	.	8D\J)	.	.	.	.	.	.	.	.	.	.	.	.	.	.	.	.	.	.	.	.	.	.	.	.
!	!	!	!	!	!	!	!	!	!	!	!	!LO:MO:mod=-tes&colon;	!	!LO:SIC:s=(4G/	!	!	!	!	!	!	!	!	!	!	!	!	!	!	!	!	!	!	!	!	!
4E\	_ 3	.	4E\	.	4G/	.	.	.	.	.	4E\	-tes	.	4G/	e-	.	.	.	.	.	.	.	.	.	.	.	.	.	.	.	.	.	.	.	.
[4F\	3	.	[4F\	.	4A/	.	[>4a/	.	.	.	4F\	lau-	.	4A/	.	.	[4a\	.	.	.	.	.	.	.	.	.	.	.	.	.	.	.	.	.	.
!	!	!	!	!	!	!	!	!	!	!	!	!	!	!	!	!	!LO:LB:g=original	!	!	!	!	!	!	!	!	!	!	!	!	!	!	!	!	!	!
=20	=20	=20	=20	=20	=20	=20	=20	=20	=20	=20	=20	=20	=20	=20	=20	=20	=20	=20	=20	=20	=20	=20	=20	=20	=20	=20	=20	=20	=20	=20	=20	=20	=20	=20	=20
4F\]	10 4_	.	4F\]	.	2B-\	.	4a/]	.	.	.	4F\	-da-	.	2B-\	.	.	4a\]	.	.	.	.	.	1ryy	1r	.	1r	.	1r	.	1r	.	1r	.	.	.
!	!	!	!	!	!	!	!	!	!	!	!	!	!	!	!	!	!LO:SIC:s=2g\)	!	!	!	!	!	!	!	!	!	!	!	!	!	!	!	!	!	!
4E\	10 _	.	4E\	.	.	.	2g/	.	.	.	4E\	-te	.	.	.	.	2g\	.	.	.	.	.	.	.	.	.	.	.	.	.	.	.	.	.	.
!	!	!	!LO:SIC:s=(4.F\	!	!	!	!	!	!	!	!	!	!	!LO:SIC:s=4.A\)	!	!	!	!	!	!	!	!	!	!	!	!	!	!	!	!	!	!	!	!	!
4.F\	10 3	.	4.F\	.	(4.A/	.	.	.	.	.	4.F\	e-	.	4.A\	.	.	.	.	.	.	.	.	.	.	.	.	.	.	.	.	.	.	.	.	.
.	.	.	.	.	.	.	[4f/	.	.	.	.	.	.	.	.	.	4f\	-te	.	.	.	.	.	.	.	.	.	.	.	.	.	.	.	.	.
16G\LL	8 3	.	16G\LL	.	16B-/LL	.	.	.	.	.	(16G\LL	-um	.	16B-\LL	-um	.	.	.	.	.	.	.	.	.	.	.	.	.	.	.	.	.	.	.	.
!	!	!	!LO:SIC:s=16A\JJ)	!	!	!	!	!	!	!	!	!	!	!	!	!	!	!	!	!	!	!	!	!	!	!	!	!	!	!	!	!	!	!	!
16A\JJ	X 3	.	16A\JJ	.	16c/JJ)	.	.	.	.	.	16A\JJ)	.	.	16c\JJ	.	.	.	.	.	.	.	.	.	.	.	.	.	.	.	.	.	.	.	.	.
!	!	!	!	!	!LO:PB:g=original	!	!	!	!	!	!	!	!	!LO:LB:g=original	!	!	!	!	!	!	!	!	!	!	!	!	!	!	!	!	!	!	!	!	!
=21	=21	=21	=21	=21	=21	=21	=21	=21	=21	=21	=21	=21	=21	=21	=21	=21	=21	=21	=21	=21	=21	=21	=21	=21	=21	=21	=21	=21	=21	=21	=21	=21	=21	=21	=21
4.B-\	5_ 3_	.	4.B-\	.	4.d\	.	4.f/]	.	.	.	4.B-\	o-	.	4.d\	o-	.	4.f\	o-	.	.	.	.	1ryy	1r	.	1r	.	1r	.	1r	.	1r	.	1r	.
!	!	!	!	!	!	!	!	!	!	!	!	!LO:MO:mod=-mnes	!	!	!	!	!	!	!	!	!	!	!	!	!	!	!	!	!	!	!	!	!	!	!
8B-\	.	.	8B-\	.	8d\	.	8f/	.	.	.	8B-\	-mni	.	8d\	-mnes	.	8f\	-mnes	.	.	.	.	.	.	.	.	.	.	.	.	.	.	.	.	.
4.B-\	6_ 4_	.	4.B-\	.	4.e\	.	4.g/	.	.	.	4.B-\	po-	.	4.e\	po-	.	4.g\	po-	.	.	.	.	.	.	.	.	.	.	.	.	.	.	.	.	.
8B-\	.	.	8B-\	.	8e\	.	8g/	.	.	.	8B-\	-pu-	.	8e\	-pu-	.	8g\	-pu-	.	.	.	.	.	.	.	.	.	.	.	.	.	.	.	.	.
!	!	!	!	!	!	!	!	!	!	!	!	!	!	!	!	!	!	!	!	!	!	!	!	!	!	!	!	!LO:CL:ed	!	!	!	!	!	!	!
*	*	*	*	*	*	*	*	*	*	*	*	*	*	*	*	*	*	*	*	*	*	*	*	*	*	*	*	*clefF4	*	*	*	*	*	*	*
*	*	*	*	*	*	*	*	*	*	*	*	*	*	*	*	*	*	*	*	*	*	*	*	*	*	*	*	*mclefF4	*	*	*	*	*	*	*
!	!	!	!	!	!	!	!	!	!	!	!LO:LB:g=original	!	!	!	!	!	!	!	!	!	!	!	!	!	!	!	!	!	!	!	!	!	!	!	!
=22	=22	=22	=22	=22	=22	=22	=22	=22	=22	=22	=22	=22	=22	=22	=22	=22	=22	=22	=22	=22	=22	=22	=22	=22	=22	=22	=22	=22	=22	=22	=22	=22	=22	=22	=22
*2\right	*	*	*2\right	*	*	*	*	*	*	*	*	*	*	*	*	*	*	*	*	*	*	*	*	*	*	*	*	*2\right	*	*	*	*	*	*	*
!	!	!	!	!	!	!	!	!	!	!	!	!LO:MO:mod=-li,	!	!	!LO:MO:mod=-li,	!	!	!LO:MO:mod=-li,	!	!	!	!	!	!	!	!	!	!	!	!	!	!	!	!	!
2A\	X 6_	.	2A\	.	1f	.	2a/	.	4r	.	2A\	-li	.	[1f	-li	.	2f\	-li	.	4r	.	.	1ryy	1r	.	1r	.	2A\	.	1r	.	4r	.	4r	.
.	.	.	.	.	.	.	.	.	8ff\L	.	.	.	.	.	.	.	.	.	.	8ff\L	lau-	.	.	.	.	.	.	.	.	.	.	8ff\L	.	8fff\L	.
.	.	.	.	.	.	.	.	.	8ee\J	.	.	.	.	.	.	.	.	.	.	8ee\J	.	.	.	.	.	.	.	.	.	.	.	8ee\J	.	8eee\J	.
4B-\	10 _	.	4B-\	.	.	.	2r	.	4dd\	.	(4B-\	lau-	.	.	.	.	2r	.	.	4dd\	-da-	.	.	.	.	.	.	4B-\	.	.	.	4dd\	.	4ddd\	.
4A\	10 _	.	4A\	.	.	.	.	.	4cc\	.	4A\)	.	.	.	.	.	.	.	.	4cc\	-te	.	.	.	.	.	.	4A\	.	.	.	(4cc\	.	(4ccc\	.
!LO:LB:g=original	!	!	!	!	!	!	!	!	!	!	!	!	!	!	!	!	!	!	!	!LO:LB:g=original	!	!	!	!	!	!	!	!	!	!	!	!	!	!	!
=23	=23	=23	=23	=23	=23	=23	=23	=23	=23	=23	=23	=23	=23	=23	=23	=23	=23	=23	=23	=23	=23	=23	=23	=23	=23	=23	=23	=23	=23	=23	=23	=23	=23	=23	=23
*tremolo	*	*	*	*	*	*	*	*	*	*	*	*	*	*	*	*	*	*	*	*	*	*	*	*	*	*	*	*	*	*	*	*	*	*	*
2d\L	6 3	.	2d\	.	4f\	.	2r	.	4b-\	.	(2d\	-da-	.	4f\]	.	.	2r	.	.	4b-\	Do-	.	1ryy	1r	.	1r	.	2d\	.	2r	.	4b-\)	.	4bb-\)	.
.	.	.	.	.	.	.	.	.	.	.	.	.	.	.	.	.	.	.	.	.	.	.	.	.	.	.	.	.	.	.	.	.	.	.	.
.	5	.	.	.	2g\	.	.	.	8a\L	.	.	.	.	2g\	la-	.	.	.	.	8a\	-mi-	.	.	.	.	.	.	.	.	.	.	8a/L	.	8aa\L	.
.	4	.	.	.	.	.	.	.	8g\J	.	.	.	.	.	.	.	.	.	.	8g\	-num	.	.	.	.	.	.	.	.	.	.	8g/J	.	8gg\J	.
!	!	!	!	!	!	!	!	!	!	!	!	!	!	!	!	!	!	!	!	!	!LO:MO:mod=o-	!	!	!	!	!	!	!	!	!	!	!	!	!	!
2E\	6 3_	.	2E\	.	.	.	2cc\	.	4cc\	.	2E\)	.	.	.	.	.	2cc\	lau-	.	4cc\	om-	.	.	.	.	.	.	2E\	.	2c/	.	4cc/	.	4ccc\	.
!	!	!	!	!	!	!	!	!	!	!	!	!	!	!	!	!	!	!	!	!	!LO:MO:mod=-mnes	!	!	!	!	!	!	!	!	!	!	!	!	!	!
.	5 _	.	.	.	[4c\	.	.	.	[4b-\	.	.	.	.	[4c\	-u-	.	.	.	.	4b-\	-nes	.	.	.	.	.	.	.	.	.	.	[4b-/	.	[4bb-\	.
*Xtremolo	*	*	*	*	*	*	*	*	*	*	*	*	*	*	*	*	*	*	*	*	*	*	*	*	*	*	*	*	*	*	*	*	*	*	*
!	!	!	!LO:LB:g=original	!	!	!	!LO:LB:g=original	!	!	!	!	!	!	!	!	!	!LO:LB:g=original	!	!	!	!	!	!	!	!	!	!	!	!	!	!	!LO:LB:g=original	!	!LO:LB:g=original	!
=24	=24	=24	=24	=24	=24	=24	=24	=24	=24	=24	=24	=24	=24	=24	=24	=24	=24	=24	=24	=24	=24	=24	=24	=24	=24	=24	=24	=24	=24	=24	=24	=24	=24	=24	=24
!	!	!	!	!	!	!	!	!	!	!	!	!LO:MO:mod=-te,	!	!	!	!	!	!	!	!	!	!	!	!	!	!	!	!	!	!	!	!LO:TX:t=P:problem=brak zakończenia ligatury	!	!LO:TX:t=P:problem=brak zakończenia ligatury	!
2F\	4	.	2F\	.	4c\]	.	1cc	.	4b-\]	.	2F\	-te	.	4c\]	.	.	1cc	-da-	.	(4b-\	gen-	.	1ryy	2r	.	2r	.	2F\	.	2.c/	.	4b-\]	.	4bb-\]	.
.	3	.	.	.	2f\	.	.	.	8a\L	.	.	.	.	2f\	-da-	.	.	.	.	8a\L	.	.	.	.	.	.	.	.	.	.	.	8a\L	.	8aa\L	.
.	2	.	.	.	.	.	.	.	8g\J	.	.	.	.	.	.	.	.	.	.	8g\J)	.	.	.	.	.	.	.	.	.	.	.	8g\J	.	8gg\J	.
*	*	*	*	*	*	*	*	*	*	*	*	*	*	*	*	*	*	*	*	*	*	*	*	*2\right	*	*2\right	*	*	*	*	*	*	*	*	*
!	!	!	!	!	!	!	!	!	!	!	!	!	!	!	!	!	!	!	!	!	!LO:MO:mod=-tes&colon;	!	!	!	!	!	!	!	!	!	!	!	!	!	!
2F\	3	.	2F\	.	.	.	.	.	4a\	.	2F\	lau-	.	.	.	.	.	.	.	4a\	-tes	.	.	2f\	.	2a\	.	2F\	.	.	.	4a\	.	4aa\	.
!	!	!	!	!	!LO:SIC:s=[4A/	!	!	!	!	!	!	!	!	!	!	!	!	!	!	!	!	!	!	!	!	!	!	!	!	!	!	!	!	!LO:SIC:s=[4fff\	!
.	8	.	.	.	4A/	.	.	.	[4ff\	.	.	.	.	[4A\	-te	.	.	.	.	4ff\	lau-	.	.	.	.	.	.	.	.	4cc\	.	[4ff\	.	4fff\	.
!	!	!	!	!	!	!	!	!	!LO:LB:g=original	!	!	!	!	!LO:PB:g=original	!	!	!	!	!	!	!	!	!	!	!	!	!	!	!	!	!	!	!	!	!
=25	=25	=25	=25	=25	=25	=25	=25	=25	=25	=25	=25	=25	=25	=25	=25	=25	=25	=25	=25	=25	=25	=25	=25	=25	=25	=25	=25	=25	=25	=25	=25	=25	=25	=25	=25
!	!	!	!	!	!LO:SIC:s=4A/]	!	!	!	!	!	!	!	!	!	!	!	!	!	!	!	!	!	!	!	!	!	!	!	!	!	!	!	!	!LO:SIC:s=4fff\]	!
2.G\	7 3_	.	2.G\	.	4A/	.	1b-	.	4ff\]	.	2.G\	-da-	.	4A\]	.	.	1b-	-te	.	(4ff\	-da-	.	1ryy	2.g\	.	2.g\	.	2.G\	.	1b-	.	4ff\]	.	4fff\	.
.	6 _	.	.	.	2G/	.	.	.	8ee\L	.	.	.	.	2G\	o-	.	.	.	.	8ee\L	.	.	.	.	.	.	.	.	.	.	.	8ee\L	.	8eee\L	.
.	5 _	.	.	.	.	.	.	.	8dd\J	.	.	.	.	.	.	.	.	.	.	8dd\J)	.	.	.	.	.	.	.	.	.	.	.	8dd\J	.	8ddd\J	.
.	6 _	.	.	.	.	.	.	.	4ee\	.	.	.	.	.	.	.	.	.	.	4ee\	-te	.	.	.	.	.	.	.	.	.	.	4ee\	.	4eee\	.
!	!	!	!	!	!	!	!	!	!	!	!	!	!	!	!	!	!	!	!	!LO:SIC:s=([4gg\	!	!	!	!	!	!	!	!	!	!	!	!	!	!LO:SIC:s=[4ggg\	!
4E\	10 _	.	4E\	.	4c\	.	.	.	[4gg\	.	4E\	-te	.	4c\	-mnes	.	.	.	.	4gg\	e-	.	.	4c/	.	4g\	.	4E\	.	.	.	[4gg\	.	4ggg\	.
!	!	!	!	!	!	!	!	!	!	!	!LO:LB:g=original	!	!	!	!	!	!	!	!	!	!	!	!	!	!	!	!	!	!	!	!	!	!	!	!
=26	=26	=26	=26	=26	=26	=26	=26	=26	=26	=26	=26	=26	=26	=26	=26	=26	=26	=26	=26	=26	=26	=26	=26	=26	=26	=26	=26	=26	=26	=26	=26	=26	=26	=26	=26
!	!	!	!	!	!	!	!	!	!	!	!	!	!	!	!	!	!	!	!	!LO:SIC:s=4gg\]	!	!	!	!	!	!LO:N:vis=2	!	!	!	!	!	!	!	!LO:SIC:s=4ggg\]	!
2F\	9 3	.	2F\	.	1c	.	2.a/	.	4gg\]	.	2F\	e-	.	(1c	po-	.	2.a\	e-	.	4gg\	.	.	1ryy	1f	.	1a	.	2F\	.	2.a/	.	4gg\]	.	4ggg\	.
!	!	!	!	!	!	!	!	!	!	!	!	!	!	!	!	!	!	!	!	!LO:SIC:s=8ff\L	!	!	!	!	!	!	!	!	!	!	!	!	!	!	!
.	8	.	.	.	.	.	.	.	8ff\L	.	.	.	.	.	.	.	.	.	.	(8ff\L	.	.	.	.	.	.	.	.	.	.	.	8ff\L	.	8fff\L	.
.	7	.	.	.	.	.	.	.	8ee\J	.	.	.	.	.	.	.	.	.	.	8ee\J)	.	.	.	.	.	.	.	.	.	.	.	8ee\J	.	8eee\J	.
2F\	8	.	2F\	.	.	.	.	.	4ff\	.	2F\	-um	.	.	.	.	.	.	.	4ff\	-um	.	.	.	.	.	.	2F\	.	.	.	4ff\	.	4fff\	.
!	!	!	!	!	!	!	!	!	!	!	!	!	!	!	!	!	!	!	!	!LO:SIC:s=([4aa\	!LO:MO:mod=o-	!	!	!	!	!	!	!	!	!	!	!	!	!	!
.	10	.	.	.	.	.	4cc\	.	[4aa\	.	.	.	.	.	.	.	4cc\	-um	.	[4aa\	om-	.	.	.	.	.	.	.	.	4cc\	.	4aa\	.	4aaa\	.
!	!	!	!	!	!	!	!	!	!	!	!	!	!	!	!	!	!	!	!	!LO:LB:g=original	!	!	!	!	!	!	!	!	!	!	!	!	!	!	!
=27	=27	=27	=27	=27	=27	=27	=27	=27	=27	=27	=27	=27	=27	=27	=27	=27	=27	=27	=27	=27	=27	=27	=27	=27	=27	=27	=27	=27	=27	=27	=27	=27	=27	=27	=27
*	*	*	*	*	*^	*	*	*	*	*	*	*	*	*	*	*	*	*	*	*	*	*	*	*	*	*	*	*	*	*	*	*	*	*	*
*	*	*	*	*	*	*	*	*	*	*	*	*	*	*	*	*	*	*	*	*	*	*	*	*	*	*	*	*	*	*	*2\right	*	*2\right	*	*2\right	*
!	!	!	!	!	!	!	!	!	!	!	!	!	!	!	!	!	!	!	!LO:MO:mod=o-	!	!	!	!	!	!	!	!	!	!	!	!	!	!	!	!	!
2BB-/	7 3_	.	2BB-/	.	1d	2B-\	.	2b-\	.	4aa\]	.	2BB-/	o-	.	1d)	.	.	2b-\	om-	.	4aa\]	.	.	1ryy	4r	.	2b-\	.	2BB-/	.	2b-\	.	4aa\	.	4aaa\	.
!	!	!	!	!	!	!	!	!	!	!	!	!	!	!	!	!	!	!	!	!	!LO:SIC:s=2gg\)	!	!	!	!	!	!	!	!	!	!	!	!	!	!	!
.	.	.	.	.	.	.	.	.	.	2gg\	.	.	.	.	.	.	.	.	.	.	2gg\	.	.	.	2g\	.	.	.	.	.	.	.	2gg\	.	2ggg\	.
!	!	!	!	!	!	!	!	!	!	!	!	!	!	!	!	!	!	!	!LO:MO:mod=-mnes	!	!	!	!	!	!	!	!	!	!	!	!	!	!	!	!	!
2BBn/	6: _	.	2BBn/	.	.	2Bn\	.	2a-X\	.	.	.	2BBn/	-mnes	.	.	.	.	2a-X\	-nes	.	.	.	.	.	.	.	2a-X\	.	2BBn/	.	2a-X\	.	.	.	.	.
!	!	!	!	!	!	!	!	!	!	!	!	!	!	!	!	!	!	!	!	!	!LO:SIC:s=[4ff\	!LO:MO:mod=-mnes	!	!	!	!	!	!	!	!	!	!	!	!	!LO:SIC:s=[4fff\	!
.	5 _	.	.	.	.	.	.	.	.	[4ff\	.	.	.	.	.	.	.	.	.	.	[4ff\	-nes	.	.	4f\	.	.	.	.	.	.	.	[4ff\	.	4fff\	.
*	*	*	*	*	*v	*v	*	*	*	*	*	*	*	*	*	*	*	*	*	*	*	*	*	*	*	*	*	*	*	*	*	*	*	*	*	*
!	!	!	!	!	!	!	!	!	!	!	!	!	!	!	!	!	!	!	!	!	!	!	!	!	!	!LO:LB:g=original	!	!	!	!LO:LB:g=original	!	!	!	!	!
=28	=28	=28	=28	=28	=28	=28	=28	=28	=28	=28	=28	=28	=28	=28	=28	=28	=28	=28	=28	=28	=28	=28	=28	=28	=28	=28	=28	=28	=28	=28	=28	=28	=28	=28	=28
!	!	!	!	!	!	!	!	!	!	!	!	!	!	!	!	!	!	!	!	!LO:SIC:s=4ff\]	!	!	!	!	!	!	!	!	!	!	!	!	!	!LO:SIC:s=4fff\]	!
2C/	4 _	.	2C/	.	2c\	.	1g	.	4ff\]	.	2C/	po-	.	1c	-pu-	.	2g\	po-	.	(4ff\]	.	.	1ryy	1c	.	1g	.	2C/	.	1g	.	4ff\]	.	4fff\	.
!	!	!	!	!	!	!	!	!	!	!	!	!	!	!	!	!	!	!	!	!LO:SIC:s=2ee\	!	!	!	!	!	!	!	!	!	!	!	!	!	!	!
.	3: _	.	.	.	.	.	.	.	2ee\	.	.	.	.	.	.	.	.	.	.	2ee\)	po-	.	.	.	.	.	.	.	.	.	.	2ee\	.	2eee\	.
2C/	X	.	2C/	.	2c\	.	.	.	.	.	2C/	-pu-	.	.	.	.	2g\	-pu-	.	.	.	.	.	.	.	.	.	2C/	.	.	.	.	.	.	.
.	2	.	.	.	.	.	.	.	8dd\L	.	.	.	.	.	.	.	.	.	.	8dd\L	-pu-	.	.	.	.	.	.	.	.	.	.	8dd\L	.	8ddd\L	.
.	3	.	.	.	.	.	.	.	8ee\J	.	.	.	.	.	.	.	.	.	.	8ee\J	.	.	.	.	.	.	.	.	.	.	.	8ee\J	.	8eee\J	.
!LO:LB:g=original	!	!	!	!	!LO:LB:g=original	!	!	!	!	!	!	!	!	!	!	!	!	!	!	!	!	!	!	!	!	!	!	!	!	!	!	!	!	!	!
=29	=29	=29	=29	=29	=29	=29	=29	=29	=29	=29	=29	=29	=29	=29	=29	=29	=29	=29	=29	=29	=29	=29	=29	=29	=29	=29	=29	=29	=29	=29	=29	=29	=29	=29	=29
!	!	!	!	!	!	!	!	!	!	!	!	!LO:MO:mod=-li.	!	!	!LO:MO:mod=-li.	!	!	!LO:MO:mod=-li.	!	!	!	!	!	!	!	!LO:SIC:s=2a\	!	!	!	!	!	!	!	!	!
4F\	8	.	4F\	.	4f\	.	4a/	.	4ff\	.	2F\	-li	.	2A\	-li	.	2f\	-li	.	2ff\	-li.	.	1ryy	2f\	.	2an\	.	2F\	.	2a/	.	2ff\	.	2fff\	.
8F\L	3	.	8F\L	.	8f\L	.	8a/L	.	8aa\L	.	.	.	.	.	.	.	.	.	.	.	.	.	.	.	.	.	.	.	.	.	.	.	.	.	.
8E\J	3	.	8E\J	.	8e\J	.	8g/J	.	8gg\J	.	.	.	.	.	.	.	.	.	.	.	.	.	.	.	.	.	.	.	.	.	.	.	.	.	.
4D\	3	.	4D\	.	4d\	.	4f/	.	4ff\	.	2r	.	.	2r	.	.	2r	.	.	2r	.	.	.	2r	.	2r	.	2r	.	2r	.	2r	.	2r	.
4C\	3	.	4C\	.	4c\	.	4e/	.	4ee\	.	.	.	.	.	.	.	.	.	.	.	.	.	.	.	.	.	.	.	.	.	.	.	.	.	.
!	!	!	!LO:LB:g=original	!	!	!	!	!	!	!	!LO:LB:g=original	!	!	!	!	!	!LO:LB:g=original	!	!	!	!	!	!	!LO:LB:g=original	!	!	!	!	!	!	!	!	!	!	!
=30	=30	=30	=30	=30	=30	=30	=30	=30	=30	=30	=30	=30	=30	=30	=30	=30	=30	=30	=30	=30	=30	=30	=30	=30	=30	=30	=30	=30	=30	=30	=30	=30	=30	=30	=30
!	!	!	!	!	!	!	!	!	!	!	!LO:TX:a:t=2.:mod=	!	!	!LO:TX:a:t=2.:mod=	!	!	!LO:TX:a:t=2.:mod=	!	!	!LO:TX:a:t=2.:mod=	!	!	!	!	!	!	!	!	!	!	!	!	!	!LO:TX:a:t=25.:mod=	!
1BBn	6	.	1BBn	.	1Bn	.	4d/	.	4dd\	.	0r	.	.	0r	.	.	0r	.	.	0r	.	.	1ryy	2r	.	2r	.	2r	.	2r	.	2r	.	1r	.
!	!	!	!	!	!	!	!LO:SIC:s=[2d [2G/	!	!	!	!	!	!	!	!	!	!	!	!	!	!	!	!	!	!	!	!	!	!	!	!	!	!	!	!
.	.	.	.	.	.	.	2d [2G/	.	8ee\L	.	.	.	.	.	.	.	.	.	.	.	.	.	.	.	.	.	.	.	.	.	.	.	.	.	.
.	.	.	.	.	.	.	.	.	8ff\J	.	.	.	.	.	.	.	.	.	.	.	.	.	.	.	.	.	.	.	.	.	.	.	.	.	.
!	!	!	!	!	!	!	!	!	!	!	!	!	!	!	!	!	!	!	!	!	!	!	!	!	!	!	!	!LO:SIC:s=(2BBn/	!	!	!	!LO:SIC:s=(2ff\	!	!	!
.	6	.	.	.	.	.	.	.	4gg\	.	.	.	.	.	.	.	.	.	.	.	.	.	.	2g\	.	2g\	.	2BBn/	.	(2dd\	.	2ff^<\	.	.	.
!	!	!	!	!	!	!	!LO:SIC:s=4d] 4G/]	!	!	!	!	!	!	!	!	!	!	!	!	!	!	!	!	!	!	!	!	!	!	!	!	!	!	!	!
.	5	.	.	.	.	.	4d 4G/]	.	4ff\	.	.	.	.	.	.	.	.	.	.	.	.	.	.	.	.	.	.	.	.	.	.	.	.	.	.
!	!	!	!	!	!	!	!	!	!LO:LB:g=original	!	!	!	!	!	!	!	!	!	!	!	!	!	!	!	!	!	!	!	!	!	!	!	!	!	!
=31	=31	=31	=31	=31	=31	=31	=31	=31	=31	=31	=31	=31	=31	=31	=31	=31	=31	=31	=31	=31	=31	=31	=31	=31	=31	=31	=31	=31	=31	=31	=31	=31	=31	=31	=31
*	*	*	*	*	*tremolo	*	*tremolo	*	*	*	*	*	*	*	*	*	*	*	*	*	*	*	*	*	*	*	*	*	*	*	*	*	*	*	*
!	!	!	!	!LO:DY:rj	!	!LO:DY:rj	!	!LO:DY:rj	!	!	!	!	!	!	!	!	!	!	!	!	!	!	!	!	!	!	!	!LO:SIC:s=4C/)	!	!	!	!LO:SIC:s=4ee\)	!	!	!
!	!	!	!	!LO:MO:mod=fp	!	!	!	!	!	!	!	!	!	!	!	!	!	!	!	!	!	!	!	!	!	!	!	!	!	!	!	!	!	!	!
(2C/	3	.	2C/	ff	8c\L	fp	8eL 8G/	fp	4ee\	.	.	.	.	.	.	.	.	.	.	.	.	.	1ryy	4c/	.	4g\	.	4C/	.	4cc\)	.	4ee\	.	1r	.
.	.	.	.	.	8c\	.	8e 8G/	.	.	.	.	.	.	.	.	.	.	.	.	.	.	.	.	.	.	.	.	.	.	.	.	.	.	.	.
.	.	.	.	.	8c\	.	8e 8G/	.	4r	.	.	.	.	.	.	.	.	.	.	.	.	.	.	4r	.	4r	.	4r	.	4r	.	4r	.	.	.
.	.	.	.	.	8c\J	.	8eJ 8G/	.	.	.	.	.	.	.	.	.	.	.	.	.	.	.	.	.	.	.	.	.	.	.	.	.	.	.	.
4E\	.	.	4E\	.	8c\L	.	8eL 8G/	.	2r	.	.	.	.	.	.	.	.	.	.	.	.	.	.	2r	.	2r	.	2r	.	2r	.	2r	.	.	.
.	.	.	.	.	8c\	.	8e 8G/	.	.	.	.	.	.	.	.	.	.	.	.	.	.	.	.	.	.	.	.	.	.	.	.	.	.	.	.
4G\)	.	.	4G\	.	8c\	.	8e 8G/	.	.	.	.	.	.	.	.	.	.	.	.	.	.	.	.	.	.	.	.	.	.	.	.	.	.	.	.
.	.	.	.	.	8c\J	.	8eJ 8G/	.	.	.	.	.	.	.	.	.	.	.	.	.	.	.	.	.	.	.	.	.	.	.	.	.	.	.	.
!	!	!	!	!	!	!	!	!	!	!	!	!	!	!	!	!	!	!	!	!LO:TX:b:rj:t=V&colon; S&colon;:mod=	!	!	!	!	!	!	!	!	!	!	!	!	!	!	!
!	!	!	!	!	!	!	!	!	!	!	!	!	!	!LO:LB:g=original	!	!	!	!	!	!LO:PB:g=original	!	!	!	!	!	!	!	!	!	!	!	!	!	!	!
=32	=32	=32	=32	=32	=32	=32	=32	=32	=32	=32	=32	=32	=32	=32	=32	=32	=32	=32	=32	=32	=32	=32	=32	=32	=32	=32	=32	=32	=32	=32	=32	=32	=32	=32	=32
*	*	*	*	*	*rep	*	*rep	*	*	*	*	*	*	*	*	*	*	*	*	*	*	*	*	*	*	*	*	*	*	*	*	*	*	*	*
!	!	!	!	!	!	!	!	!	!	!	!	!	!	!	!	!	!	!	!	!	!	!	!	!LO:TX:a:t=15.:mod=	!	!LO:TX:a:t=15.:mod=	!	!LO:TX:a:t=15:mod=	!	!LO:TX:a:t=15.:mod=	!	!LO:TX:a:t=15.:mod=	!	!	!
2c\	.	.	2c\	.	8c\L	.	8eL 8G/	.	4r	.	2r	.	.	2r	.	.	2r	.	.	2r	.	.	1ryy	1r	.	1r	.	1r	.	1r	.	1r	.	1r	.
.	.	.	.	.	8c\	.	8e 8G/	.	.	.	.	.	.	.	.	.	.	.	.	.	.	.	.	.	.	.	.	.	.	.	.	.	.	.	.
.	.	.	.	.	8c\	.	8e 8G/	.	8ccc\L	.	.	.	.	.	.	.	.	.	.	.	.	.	.	.	.	.	.	.	.	.	.	.	.	.	.
.	.	.	.	.	8c\J	.	8eJ 8G/	.	8bbn\J	.	.	.	.	.	.	.	.	.	.	.	.	.	.	.	.	.	.	.	.	.	.	.	.	.	.
2r	.	.	2r	.	8c\L	.	8eL 8G/	.	4aa\	.	4r	.	.	4r	.	.	4r	.	.	4r	.	.	.	.	.	.	.	.	.	.	.	.	.	.	.
.	.	.	.	.	8c\	.	8e 8G/	.	.	.	.	.	.	.	.	.	.	.	.	.	.	.	.	.	.	.	.	.	.	.	.	.	.	.	.
!	!	!	!	!	!	!	!	!	!	!	!	!LO:MO:mod=Quo-	!LO:DY:rj:t=p.	!	!LO:MO:mod=Quo-	!LO:DY:rj	!	!LO:MO:mod=Quo-	!LO:DY:rj	!	!LO:MO:mod=Quo-	!LO:DY:a:rj:t=p.	!	!	!	!	!	!	!	!	!	!	!	!	!
.	.	.	.	.	8c\	.	8e 8G/	.	[4gg\	.	8C/	quo-	p	8e\	quo-	p	8g\	quo-	p	8cc\	Om-	p	.	.	.	.	.	.	.	.	.	.	.	.	.
.	.	.	.	.	8c\J	.	8eJ 8G/	.	.	.	8C/	-ni-	.	8e\	-ni-	.	8g\	-ni-	.	8cc\	-ni-	.	.	.	.	.	.	.	.	.	.	.	.	.	.
*	*	*	*	*	*Xrep	*	*Xrep	*	*	*	*	*	*	*	*	*	*	*	*	*	*	*	*	*	*	*	*	*	*	*	*	*	*	*	*
!	!	!	!	!	!	!	!LO:LB:g=original	!	!	!	!	!	!	!	!	!	!	!	!	!	!	!	!	!	!	!	!	!	!	!	!	!	!	!	!
=33	=33	=33	=33	=33	=33	=33	=33	=33	=33	=33	=33	=33	=33	=33	=33	=33	=33	=33	=33	=33	=33	=33	=33	=33	=33	=33	=33	=33	=33	=33	=33	=33	=33	=33	=33
!LO:TX:a:t=1:mod=	!	!	!LO:TX:a:t=1:mod=	!	!	!	!	!	!	!	!	!	!	!	!	!	!	!	!	!	!	!	!	!	!	!	!	!	!	!	!	!	!	!	!
1r	.	.	1r	.	8c\L	.	8eL 8G/	.	4gg\]	.	2C/	-am	.	2e\	-am	.	2g\	-am	.	2cc\	-am	.	1ryy	1r	.	1r	.	1r	.	1r	.	1r	.	1r	.
.	.	.	.	.	8c\	.	8e 8G/	.	.	.	.	.	.	.	.	.	.	.	.	.	.	.	.	.	.	.	.	.	.	.	.	.	.	.	.
.	.	.	.	.	8c\	.	8e 8G/	.	8aa\L	.	.	.	.	.	.	.	.	.	.	.	.	.	.	.	.	.	.	.	.	.	.	.	.	.	.
.	.	.	.	.	8c\J	.	8eJ 8G/	.	8gg\J	.	.	.	.	.	.	.	.	.	.	.	.	.	.	.	.	.	.	.	.	.	.	.	.	.	.
.	.	.	.	.	8c\L	.	8eL 8G/	.	4ff\	.	4C/	con-	.	4e\	con-	.	4g\	con-	.	4cc\	con-	.	.	.	.	.	.	.	.	.	.	.	.	.	.
.	.	.	.	.	8c\	.	8e 8G/	.	.	.	.	.	.	.	.	.	.	.	.	.	.	.	.	.	.	.	.	.	.	.	.	.	.	.	.
.	.	.	.	.	8c\	.	8e 8G/	.	4ee\	.	4C/	-fir-	.	4e\	-fir-	.	4g\	-fir-	.	4cc\	-fir-	.	.	.	.	.	.	.	.	.	.	.	.	.	.
.	.	.	.	.	8c\J	.	8eJ 8G/	.	.	.	.	.	.	.	.	.	.	.	.	.	.	.	.	.	.	.	.	.	.	.	.	.	.	.	.
=34	=34	=34	=34	=34	=34	=34	=34	=34	=34	=34	=34	=34	=34	=34	=34	=34	=34	=34	=34	=34	=34	=34	=34	=34	=34	=34	=34	=34	=34	=34	=34	=34	=34	=34	=34
4r	.	.	4r	.	8d\L	.	8fL 8G/	.	4dd\	.	2.BBn/	-ma-	.	2.f\	-ma-	.	2.g\	-ma-	.	2.dd\	-ma-	.	1ryy	1r	.	1r	.	1r	.	1r	.	1r	.	1r	.
.	.	.	.	.	8d\	.	8f 8G/	.	.	.	.	.	.	.	.	.	.	.	.	.	.	.	.	.	.	.	.	.	.	.	.	.	.	.	.
8BBn/L	6 5	.	8BBn/L	.	8d\	.	8f 8G/	.	4r	.	.	.	.	.	.	.	.	.	.	.	.	.	.	.	.	.	.	.	.	.	.	.	.	.	.
8AA/J	.	.	8AA/J	.	8d\J	.	8fJ 8G/	.	.	.	.	.	.	.	.	.	.	.	.	.	.	.	.	.	.	.	.	.	.	.	.	.	.	.	.
4GG/	.	.	4GG/	.	8d\L	.	8fL 8G/	.	2r	.	.	.	.	.	.	.	.	.	.	.	.	.	.	.	.	.	.	.	.	.	.	.	.	.	.
.	.	.	.	.	8d\	.	8f 8G/	.	.	.	.	.	.	.	.	.	.	.	.	.	.	.	.	.	.	.	.	.	.	.	.	.	.	.	.
4BB/	.	.	4BB/	.	8d\	.	8f 8G/	.	.	.	4BB/	-ta	.	4f\	-ta	.	4g\	-ta	.	4dd\	-ta	.	.	.	.	.	.	.	.	.	.	.	.	.	.
.	.	.	.	.	8d\J	.	8fJ 8G/	.	.	.	.	.	.	.	.	.	.	.	.	.	.	.	.	.	.	.	.	.	.	.	.	.	.	.	.
!	!	!	!	!	!	!	!	!	!	!	!LO:LB:g=original	!	!	!	!	!	!	!	!	!	!	!	!	!	!	!	!	!	!	!	!	!	!	!	!
=35	=35	=35	=35	=35	=35	=35	=35	=35	=35	=35	=35	=35	=35	=35	=35	=35	=35	=35	=35	=35	=35	=35	=35	=35	=35	=35	=35	=35	=35	=35	=35	=35	=35	=35	=35
4C/	.	.	4C/	.	8c\L	.	8eL 8G/	.	1ryy	.	2C/	est	.	2e\	est	.	2g\	est	.	2cc\	est	.	1ryy	1r	.	1r	.	1r	.	1r	.	1r	.	1r	.
.	.	.	.	.	8c\	.	8e 8G/	.	.	.	.	.	.	.	.	.	.	.	.	.	.	.	.	.	.	.	.	.	.	.	.	.	.	.	.
4r	.	.	4r	.	8c\	.	8e 8G/	.	.	.	.	.	.	.	.	.	.	.	.	.	.	.	.	.	.	.	.	.	.	.	.	.	.	.	.
.	.	.	.	.	8c\J	.	8eJ 8G/	.	.	.	.	.	.	.	.	.	.	.	.	.	.	.	.	.	.	.	.	.	.	.	.	.	.	.	.
2r	.	.	2r	.	8c\L	.	8eL 8G/	.	.	.	4C/	su-	.	4e\	su-	.	4g\	su-	.	4cc\	su-	.	.	.	.	.	.	.	.	.	.	.	.	.	.
.	.	.	.	.	8c\	.	8e 8G/	.	.	.	.	.	.	.	.	.	.	.	.	.	.	.	.	.	.	.	.	.	.	.	.	.	.	.	.
.	.	.	.	.	8c\	.	8e 8G/	.	.	.	4C/	-per	.	4e\	-per	.	4g\	-per	.	4cc\	-per	.	.	.	.	.	.	.	.	.	.	.	.	.	.
.	.	.	.	.	8c\J	.	8eJ 8G/	.	.	.	.	.	.	.	.	.	.	.	.	.	.	.	.	.	.	.	.	.	.	.	.	.	.	.	.
!LO:LB:g=original	!	!	!LO:LB:g=original	!	!	!	!	!	!	!	!	!	!	!LO:LB:g=original	!	!	!LO:LB:g=original	!	!	!	!	!	!	!	!	!	!	!	!	!	!	!	!	!	!
=36	=36	=36	=36	=36	=36	=36	=36	=36	=36	=36	=36	=36	=36	=36	=36	=36	=36	=36	=36	=36	=36	=36	=36	=36	=36	=36	=36	=36	=36	=36	=36	=36	=36	=36	=36
4r	.	.	4r	.	8d\L	.	8fL 8G/	.	1ryy	.	2.BBn/	nos	.	2.f\	nos	.	2.g\	nos	.	2.dd\	nos	.	1ryy	1r	.	1r	.	1r	.	1r	.	1r	.	1r	.
.	.	.	.	.	8d\	.	8f 8G/	.	.	.	.	.	.	.	.	.	.	.	.	.	.	.	.	.	.	.	.	.	.	.	.	.	.	.	.
8BBn/L	6 5	.	8BBn/L	.	8d\	.	8f 8G/	.	.	.	.	.	.	.	.	.	.	.	.	.	.	.	.	.	.	.	.	.	.	.	.	.	.	.	.
8AA/J	.	.	8AA/J	.	8d\J	.	8fJ 8G/	.	.	.	.	.	.	.	.	.	.	.	.	.	.	.	.	.	.	.	.	.	.	.	.	.	.	.	.
4GG/	.	.	4GG/	.	8d\L	.	8fL 8G/	.	.	.	.	.	.	.	.	.	.	.	.	.	.	.	.	.	.	.	.	.	.	.	.	.	.	.	.
.	.	.	.	.	8d\	.	8f 8G/	.	.	.	.	.	.	.	.	.	.	.	.	.	.	.	.	.	.	.	.	.	.	.	.	.	.	.	.
4BB/	.	.	4BB/	.	8d\	.	8f 8G/	.	.	.	4BB/	mi-	.	4f\	mi-	.	4g\	mi-	.	4dd\	mi-	.	.	.	.	.	.	.	.	.	.	.	.	.	.
.	.	.	.	.	8d\J	.	8fJ 8G/	.	.	.	.	.	.	.	.	.	.	.	.	.	.	.	.	.	.	.	.	.	.	.	.	.	.	.	.
=37	=37	=37	=37	=37	=37	=37	=37	=37	=37	=37	=37	=37	=37	=37	=37	=37	=37	=37	=37	=37	=37	=37	=37	=37	=37	=37	=37	=37	=37	=37	=37	=37	=37	=37	=37
4C/	3	.	4C/	.	8c\L	.	8eL 8G/	.	4r	.	2C/	-se-	.	2e\	-se-	.	2g\	-se-	.	2.cc\	-se-	.	1ryy	1r	.	1r	.	1r	.	1r	.	1r	.	1r	.
.	.	.	.	.	8c\	.	8e 8G/	.	.	.	.	.	.	.	.	.	.	.	.	.	.	.	.	.	.	.	.	.	.	.	.	.	.	.	.
4r	8_	.	4r	.	8c\	.	8e 8G/	.	4cc\	.	.	.	.	.	.	.	.	.	.	.	.	.	.	.	.	.	.	.	.	.	.	.	.	.	.
.	.	.	.	.	8c\J	.	8eJ 8G/	.	.	.	.	.	.	.	.	.	.	.	.	.	.	.	.	.	.	.	.	.	.	.	.	.	.	.	.
4E\	.	.	4E\	.	8c\L	.	8gL 8G/	.	4r	.	2E\	-ri-	.	2c\	-ri-	.	2g\	-ri-	.	.	.	.	.	.	.	.	.	.	.	.	.	.	.	.	.
.	.	.	.	.	8c\	.	8g 8G/	.	.	.	.	.	.	.	.	.	.	.	.	.	.	.	.	.	.	.	.	.	.	.	.	.	.	.	.
4r	6 n5	.	4r	.	8c\	.	8g 8G/	.	4bn\	.	.	.	.	.	.	.	.	.	.	4bn\	-ri-	.	.	.	.	.	.	.	.	.	.	.	.	.	.
.	.	.	.	.	8c\J	.	8gJ 8G/	.	.	.	.	.	.	.	.	.	.	.	.	.	.	.	.	.	.	.	.	.	.	.	.	.	.	.	.
!	!	!	!	!	!LO:LB:g=original	!	!	!	!LO:LB:g=original	!	!	!	!	!	!	!	!	!	!	!LO:LB:g=original	!	!	!	!	!	!	!	!	!	!	!	!	!	!	!
=38	=38	=38	=38	=38	=38	=38	=38	=38	=38	=38	=38	=38	=38	=38	=38	=38	=38	=38	=38	=38	=38	=38	=38	=38	=38	=38	=38	=38	=38	=38	=38	=38	=38	=38	=38
4F\	3	.	4F\	.	8c\L	.	8fL 8A/	.	4r	.	2F\	-cor-	.	2c\	-cor-	.	2a\	-cor-	.	2a\	-cor-	.	1ryy	1r	.	1r	.	1r	.	1r	.	1r	.	1r	.
.	.	.	.	.	8c\	.	8f 8A/	.	.	.	.	.	.	.	.	.	.	.	.	.	.	.	.	.	.	.	.	.	.	.	.	.	.	.	.
4r	.	.	4r	.	8c\	.	8f 8A/	.	4a/	.	.	.	.	.	.	.	.	.	.	.	.	.	.	.	.	.	.	.	.	.	.	.	.	.	.
.	.	.	.	.	8c\J	.	8fJ 8A/	.	.	.	.	.	.	.	.	.	.	.	.	.	.	.	.	.	.	.	.	.	.	.	.	.	.	.	.
4F\	6	.	4F\	.	8d\L	.	8fL 8A/	.	4r	.	4F\	-di-	.	4d\	-di-	.	4a\	-di-	.	4ff\	-di-	.	.	.	.	.	.	.	.	.	.	.	.	.	.
.	.	.	.	.	8d\	.	8f 8A/	.	.	.	.	.	.	.	.	.	.	.	.	.	.	.	.	.	.	.	.	.	.	.	.	.	.	.	.
4r	.	.	4r	.	8d\	.	8f 8A/	.	4dd\	.	4F\	-a	.	4d\	-a	.	4a\	-a	.	4dd\	-a	.	.	.	.	.	.	.	.	.	.	.	.	.	.
.	.	.	.	.	8d\J	.	8fJ 8A/	.	.	.	.	.	.	.	.	.	.	.	.	.	.	.	.	.	.	.	.	.	.	.	.	.	.	.	.
!	!	!	!	!	!	!	!	!	!	!	!LO:LB:g=original	!	!	!	!	!	!	!	!	!	!	!	!	!	!	!	!	!	!	!	!	!	!	!	!
=39	=39	=39	=39	=39	=39	=39	=39	=39	=39	=39	=39	=39	=39	=39	=39	=39	=39	=39	=39	=39	=39	=39	=39	=39	=39	=39	=39	=39	=39	=39	=39	=39	=39	=39	=39
4G\	6 4	.	4G\	.	8G/L	.	8eL 8G/	.	4r	.	(2G\	e-	.	(2e\	e-	.	(2g\	e-	.	1cc	e-	.	1ryy	1r	.	1r	.	1r	.	1r	.	1r	.	1r	.
.	.	.	.	.	8G/	.	8e 8G/	.	.	.	.	.	.	.	.	.	.	.	.	.	.	.	.	.	.	.	.	.	.	.	.	.	.	.	.
4r	.	.	4r	.	8G/	.	8e 8G/	.	4cc\	.	.	.	.	.	.	.	.	.	.	.	.	.	.	.	.	.	.	.	.	.	.	.	.	.	.
.	.	.	.	.	8G/J	.	8eJ 8G/	.	.	.	.	.	.	.	.	.	.	.	.	.	.	.	.	.	.	.	.	.	.	.	.	.	.	.	.
4F#X\	6 7	.	4F#X\	.	8AL 8F#X/	.	8e-XL 8c/	.	4r	.	2F#X\)	.	.	2e-X\)	.	.	2a\)	.	.	.	.	.	.	.	.	.	.	.	.	.	.	.	.	.	.
.	.	.	.	.	8A 8F#/	.	8e- 8c/	.	.	.	.	.	.	.	.	.	.	.	.	.	.	.	.	.	.	.	.	.	.	.	.	.	.	.	.
4r	.	.	4r	.	8A 8F#/	.	8e- 8c/	.	4cc\	.	.	.	.	.	.	.	.	.	.	.	.	.	.	.	.	.	.	.	.	.	.	.	.	.	.
.	.	.	.	.	8AJ 8F#/	.	8e-J 8c/	.	.	.	.	.	.	.	.	.	.	.	.	.	.	.	.	.	.	.	.	.	.	.	.	.	.	.	.
=40	=40	=40	=40	=40	=40	=40	=40	=40	=40	=40	=40	=40	=40	=40	=40	=40	=40	=40	=40	=40	=40	=40	=40	=40	=40	=40	=40	=40	=40	=40	=40	=40	=40	=40	=40
!	!	!	!	!	!	!	!	!	!	!	!	!LO:MO:mod=-jus&colon;	!	!	!LO:MO:mod=-jus&colon;	!	!	!LO:MO:mod=-jus&colon;	!	!	!LO:MO:mod=-jus&colon;	!	!	!	!	!	!	!	!	!	!	!	!	!	!
2G 2GG\	n_	.	2G 2GG\	.	8G/L	.	8dL 8G/	.	4bn\	.	2G\	-ius	.	2d\	-ius	.	2g\	-ius	.	2bn\	-jus	.	1ryy	1r	.	1r	.	1r	.	1r	.	1r	.	1r	.
.	.	.	.	.	8G/	.	8d 8G/	.	.	.	.	.	.	.	.	.	.	.	.	.	.	.	.	.	.	.	.	.	.	.	.	.	.	.	.
.	.	.	.	.	8G/	.	8d 8G/	.	4r	.	.	.	.	.	.	.	.	.	.	.	.	.	.	.	.	.	.	.	.	.	.	.	.	.	.
.	.	.	.	.	8G/J	.	8dJ 8G/	.	.	.	.	.	.	.	.	.	.	.	.	.	.	.	.	.	.	.	.	.	.	.	.	.	.	.	.
4BBn/	.	.	4BBn\	.	8G/L	.	8dL 8G/	.	2r	.	4r	.	.	4r	.	.	4r	.	.	4r	.	.	.	.	.	.	.	.	.	.	.	.	.	.	.
.	.	.	.	.	8G/	.	8d 8G/	.	.	.	.	.	.	.	.	.	.	.	.	.	.	.	.	.	.	.	.	.	.	.	.	.	.	.	.
4D/	.	.	4D\	.	8G/	.	8d 8G/	.	.	.	4G\	et	.	4d\	et	.	4g\	et	.	4b\	et	.	.	.	.	.	.	.	.	.	.	.	.	.	.
.	.	.	.	.	8G/J	.	8dJ 8G/	.	.	.	.	.	.	.	.	.	.	.	.	.	.	.	.	.	.	.	.	.	.	.	.	.	.	.	.
!	!	!	!LO:LB:g=original	!	!	!	!LO:LB:g=original	!	!	!	!	!	!	!LO:LB:g=original	!	!	!LO:LB:g=original	!	!	!	!	!	!	!	!	!	!	!	!	!	!	!	!	!	!
=41	=41	=41	=41	=41	=41	=41	=41	=41	=41	=41	=41	=41	=41	=41	=41	=41	=41	=41	=41	=41	=41	=41	=41	=41	=41	=41	=41	=41	=41	=41	=41	=41	=41	=41	=41
2G\	.	.	2G\	.	8Bn/L	.	8dL 8G/	.	4r	.	2.G\	ve-	.	2.d\	ve-	.	2.g\	ve-	.	2.bn\	ve-	.	1ryy	1r	.	1r	.	1r	.	1r	.	1r	.	1r	.
.	.	.	.	.	8B/	.	8d 8G/	.	.	.	.	.	.	.	.	.	.	.	.	.	.	.	.	.	.	.	.	.	.	.	.	.	.	.	.
.	.	.	.	.	8B/	.	8d 8G/	.	8ff\L	.	.	.	.	.	.	.	.	.	.	.	.	.	.	.	.	.	.	.	.	.	.	.	.	.	.
.	.	.	.	.	8B/	.	8dJ 8G/	.	8ee\J	.	.	.	.	.	.	.	.	.	.	.	.	.	.	.	.	.	.	.	.	.	.	.	.	.	.
*	*	*	*	*	*	*	*Xtremolo	*	*	*	*	*	*	*	*	*	*	*	*	*	*	*	*	*	*	*	*	*	*	*	*	*	*	*	*
2r	X	.	2r	.	8B/	.	8dL 8G/	.	4dd\	.	.	.	.	.	.	.	.	.	.	.	.	.	.	.	.	.	.	.	.	.	.	.	.	.	.
.	.	.	.	.	8B/J	.	8d 8G/	.	.	.	.	.	.	.	.	.	.	.	.	.	.	.	.	.	.	.	.	.	.	.	.	.	.	.	.
*	*	*	*	*	*Xtremolo	*	*	*	*	*	*	*	*	*	*	*	*	*	*	*	*	*	*	*	*	*	*	*	*	*	*	*	*	*	*
!	!	!	!	!	!	!	!	!	!	!	!	!	!	!LO:SIC:s=4e\	!	!	!	!	!	!	!	!	!	!	!	!	!	!	!	!	!	!	!	!	!
.	.	.	.	.	8c\L	.	8e 8G/	.	4cc\	.	4G\	-ri-	.	4en\	-ri-	.	4g\	-ri-	.	4cc\	-ri-	.	.	.	.	.	.	.	.	.	.	.	.	.	.
.	.	.	.	.	8c\J	.	8eJ 8G/	.	.	.	.	.	.	.	.	.	.	.	.	.	.	.	.	.	.	.	.	.	.	.	.	.	.	.	.
=42	=42	=42	=42	=42	=42	=42	=42	=42	=42	=42	=42	=42	=42	=42	=42	=42	=42	=42	=42	=42	=42	=42	=42	=42	=42	=42	=42	=42	=42	=42	=42	=42	=42	=42	=42
*	*	*	*	*	*tremolo	*	*tremolo	*	*	*	*	*	*	*	*	*	*	*	*	*	*	*	*	*	*	*	*	*	*	*	*	*	*	*	*
!LO:TX:a:t=1.:mod=	!	!	!LO:TX:a:t=1:mod=	!	!	!	!	!	!	!	!	!	!	!	!	!	!LO:SIC:v:s:t=-tas	!	!	!	!	!	!	!	!	!	!	!	!	!	!	!	!	!	!
1r	.	.	1r	.	8d\L	.	8fL 8G/	.	(4bn\	.	2G\	-tas	.	2f\	-tas	.	2g\	-tes	.	2dd\	-tas	.	1ryy	1r	.	1r	.	1r	.	1r	.	1r	.	1r	.
.	.	.	.	.	8d\	.	8f 8G/	.	.	.	.	.	.	.	.	.	.	.	.	.	.	.	.	.	.	.	.	.	.	.	.	.	.	.	.
.	.	.	.	.	8d\	.	8f 8G/	.	8cc\L	.	.	.	.	.	.	.	.	.	.	.	.	.	.	.	.	.	.	.	.	.	.	.	.	.	.
.	.	.	.	.	8d\J	.	8fJ 8G/	.	8b\J)	.	.	.	.	.	.	.	.	.	.	.	.	.	.	.	.	.	.	.	.	.	.	.	.	.	.
.	.	.	.	.	8d\L	.	8fL 8G/	.	4a/	.	4.G\	Do-	.	4.d\	do-	.	4.g\	Do-	.	4.ff\	Do-	.	.	.	.	.	.	.	.	.	.	.	.	.	.
.	.	.	.	.	8d\	.	8f 8G/	.	.	.	.	.	.	.	.	.	.	.	.	.	.	.	.	.	.	.	.	.	.	.	.	.	.	.	.
.	.	.	.	.	8d\	.	8f 8G/	.	4g/	.	.	.	.	.	.	.	.	.	.	.	.	.	.	.	.	.	.	.	.	.	.	.	.	.	.
.	.	.	.	.	8d\J	.	8fJ 8G/	.	.	.	8G\	-mi-	.	8d\	-mi-	.	8g\	-mi-	.	8ff\	-mi-	.	.	.	.	.	.	.	.	.	.	.	.	.	.
*	*	*	*	*	*Xtremolo	*	*	*	*	*	*	*	*	*	*	*	*	*	*	*	*	*	*	*	*	*	*	*	*	*	*	*	*	*	*
!LO:LB:g=original	!	!	!	!	!	!	!	!	!	!	!LO:LB:g=original	!	!	!	!	!	!	!	!	!	!	!	!	!	!	!	!	!	!	!	!	!	!	!	!
=43	=43	=43	=43	=43	=43	=43	=43	=43	=43	=43	=43	=43	=43	=43	=43	=43	=43	=43	=43	=43	=43	=43	=43	=43	=43	=43	=43	=43	=43	=43	=43	=43	=43	=43	=43
4r	.	.	4r	.	8c\L	.	8eL 8G/	.	4g/	.	4C/	-ni	.	4e\	-ni	.	4g\	-ni	.	4ee\	-ni	.	1ryy	1r	.	1r	.	1r	.	1r	.	1r	.	1r	.
.	.	.	.	.	8c\	.	8e 8G/	.	.	.	.	.	.	.	.	.	.	.	.	.	.	.	.	.	.	.	.	.	.	.	.	.	.	.	.
8c\L	3	.	8c\L	.	8c\	.	8e 8G/	.	4r	.	(8c\L	ma-	.	(8e\L	ma-	.	4r	.	.	4r	.	.	.	.	.	.	.	.	.	.	.	.	.	.	.
!LO:SIC:v:s=8Bn\J	!	!	!LO:SIC:v:s=8Bn\J	!	!	!	!	!	!	!	!	!	!	!	!	!	!	!	!	!	!	!	!	!	!	!	!	!	!	!	!	!	!	!	!
8B-\J	3	.	8B-\J	.	8Bn\J	.	8eJ 8G/	.	.	.	8Bn\J	.	.	8d\J	.	.	.	.	.	.	.	.	.	.	.	.	.	.	.	.	.	.	.	.	.
*	*	*	*	*	*	*	*Xtremolo	*	*	*	*	*	*	*	*	*	*	*	*	*	*	*	*	*	*	*	*	*	*	*	*	*	*	*	*
!	!	!	!	!	!	!	!	!	!	!	!	!	!	!	!	!	!	!	!	!LO:SIC:s=([2ee\	!	!	!	!	!	!	!	!	!	!	!	!	!	!	!
4A\	3	.	4A\	.	8A/L	.	8eL 8c/	.	2r	.	4A\	.	.	4c\	.	.	2r	.	.	[2ee\	ma-	.	.	.	.	.	.	.	.	.	.	.	.	.	.
.	.	.	.	.	8A/	.	8e 8c/	.	.	.	.	.	.	.	.	.	.	.	.	.	.	.	.	.	.	.	.	.	.	.	.	.	.	.	.
!	!	!	!	!	!	!	!	!	!	!	!LO:SIC:s=4G\	!	!	!	!	!	!	!	!	!	!	!	!	!	!	!	!	!	!	!	!	!	!	!	!
4G\	3	.	4G\	.	8G/	.	8e 8Bn/	.	.	.	4G\)	.	.	4Bn\)	.	.	.	.	.	.	.	.	.	.	.	.	.	.	.	.	.	.	.	.	.
.	.	.	.	.	8G/J	.	8eJ 8B/	.	.	.	.	.	.	.	.	.	.	.	.	.	.	.	.	.	.	.	.	.	.	.	.	.	.	.	.
!	!	!	!	!	!	!	!	!	!	!	!	!	!	!	!	!	!	!	!	!LO:LB:g=original	!	!	!	!	!	!	!	!	!	!	!	!	!	!	!
=44	=44	=44	=44	=44	=44	=44	=44	=44	=44	=44	=44	=44	=44	=44	=44	=44	=44	=44	=44	=44	=44	=44	=44	=44	=44	=44	=44	=44	=44	=44	=44	=44	=44	=44	=44
*	*	*	*	*	*tremolo	*	*tremolo	*	*	*	*	*	*	*	*	*	*	*	*	*	*	*	*	*	*	*	*	*	*	*	*	*	*	*	*
!	!	!	!	!	!	!	!	!	!	!	!LO:SIC:s=2.F\)	!	!	!	!	!	!	!	!	!	!	!	!	!	!	!	!	!	!	!	!	!	!	!	!
4F\	3_	.	4F\	.	8F/L	.	8dL 8A/	.	4r	.	2.F\	.	.	2A\	-net	.	4r	.	.	4ee\]	.	.	1ryy	1r	.	1r	.	1r	.	1r	.	1r	.	1r	.
.	.	.	.	.	8F/	.	8d 8A/	.	.	.	.	.	.	.	.	.	.	.	.	.	.	.	.	.	.	.	.	.	.	.	.	.	.	.	.
4r	6_	.	4r	.	8F/	.	8d 8A/	.	8dd\L	.	.	.	.	.	.	.	2a\	ma-	.	4dd\	.	.	.	.	.	.	.	.	.	.	.	.	.	.	.
.	.	.	.	.	8F/J	.	8dJ 8A/	.	8ee\J	.	.	.	.	.	.	.	.	.	.	.	.	.	.	.	.	.	.	.	.	.	.	.	.	.	.
*	*	*	*	*	*	*	*Xtremolo	*	*	*	*	*	*	*	*	*	*	*	*	*	*	*	*	*	*	*	*	*	*	*	*	*	*	*	*
4F\	.	.	4F\	.	8F/L	.	8dL 8A/	.	4ff\	.	.	.	.	2r	.	.	.	.	.	8cc#X\L	.	.	.	.	.	.	.	.	.	.	.	.	.	.	.
!	!	!	!	!	!	!	!	!	!	!	!	!	!	!	!	!	!	!	!	!LO:SIC:s=8dd\J)	!	!	!	!	!	!	!	!	!	!	!	!	!	!	!
.	.	.	.	.	8F/	.	8d 8A/	.	.	.	.	.	.	.	.	.	.	.	.	8dd\J	.	.	.	.	.	.	.	.	.	.	.	.	.	.	.
4r	6 4n	.	4r	.	8F/	.	8d 8Bn/	.	4aa\	.	4F\	-net	.	.	.	.	4bn\	-net	.	8ff\L	-net	.	.	.	.	.	.	.	.	.	.	.	.	.	.
.	.	.	.	.	8F/J	.	8dJ 8B/	.	.	.	.	.	.	.	.	.	.	.	.	8dd\J	.	.	.	.	.	.	.	.	.	.	.	.	.	.	.
!	!	!	!	!	!LO:LB:g=original	!	!	!	!	!	!	!	!	!LO:LB:g=original	!	!	!LO:LB:g=original	!	!	!	!	!	!	!	!	!	!	!	!	!	!	!	!	!	!
=45	=45	=45	=45	=45	=45	=45	=45	=45	=45	=45	=45	=45	=45	=45	=45	=45	=45	=45	=45	=45	=45	=45	=45	=45	=45	=45	=45	=45	=45	=45	=45	=45	=45	=45	=45
*	*	*	*	*	*	*	*tremolo	*	*	*	*	*	*	*	*	*	*	*	*	*	*	*	*	*	*	*	*	*	*	*	*	*	*	*	*
4E\	6	.	4E\	.	8E/L	.	8gL 8c/	.	4r	.	2E\	in	.	2G/	in	.	2cc\	in	.	2gg\	in	.	1ryy	1r	.	1r	.	1r	.	1r	.	1r	.	1r	.
.	.	.	.	.	8E/	.	8g 8c/	.	.	.	.	.	.	.	.	.	.	.	.	.	.	.	.	.	.	.	.	.	.	.	.	.	.	.	.
4r	.	.	4r	.	8E/	.	8g 8c/	.	4gg\	.	.	.	.	.	.	.	.	.	.	.	.	.	.	.	.	.	.	.	.	.	.	.	.	.	.
.	.	.	.	.	8E/J	.	8gJ 8c/	.	.	.	.	.	.	.	.	.	.	.	.	.	.	.	.	.	.	.	.	.	.	.	.	.	.	.	.
!	!	!	!	!	!	!	!	!	!	!	!	!LO:MO:mod=ae-	!	!	!LO:MO:mod=ae-	!	!	!LO:MO:mod=ae-	!	!	!	!	!	!	!	!	!	!	!	!	!	!	!	!	!
4F\	6	.	4F\	.	8F/L	.	8fL 8d/	.	4r	.	2F\	e-	.	2A/	e-	.	2dd\	e-	.	2ff\	ae-	.	.	.	.	.	.	.	.	.	.	.	.	.	.
.	.	.	.	.	8F/	.	8f 8d/	.	.	.	.	.	.	.	.	.	.	.	.	.	.	.	.	.	.	.	.	.	.	.	.	.	.	.	.
4r	.	.	4r	.	8F/	.	8f 8d/	.	4ff\	.	.	.	.	.	.	.	.	.	.	.	.	.	.	.	.	.	.	.	.	.	.	.	.	.	.
.	.	.	.	.	8F/J	.	8fJ 8d/	.	.	.	.	.	.	.	.	.	.	.	.	.	.	.	.	.	.	.	.	.	.	.	.	.	.	.	.
!	!	!	!	!	!	!	!LO:LB:g=original	!	!LO:LB:g=original	!	!	!	!	!	!	!	!	!	!	!	!	!	!	!	!	!	!	!	!	!	!	!	!	!	!
=46	=46	=46	=46	=46	=46	=46	=46	=46	=46	=46	=46	=46	=46	=46	=46	=46	=46	=46	=46	=46	=46	=46	=46	=46	=46	=46	=46	=46	=46	=46	=46	=46	=46	=46	=46
!	!	!	!	!	!	!	!	!	!	!	!	!	!	!LO:SIC:s=(2c\	!	!	!	!	!	!	!	!	!	!	!	!	!	!	!	!	!	!	!	!	!
4G\	6 4	.	4G\	.	8G/L	.	8eL 8c/	.	4r	.	1G	-ter-	.	2c\	-ter-	.	1g	-ter-	.	(2ee\	-ter-	.	1ryy	1r	.	1r	.	1r	.	1r	.	1r	.	1r	.
.	.	.	.	.	8G/	.	8e 8c/	.	.	.	.	.	.	.	.	.	.	.	.	.	.	.	.	.	.	.	.	.	.	.	.	.	.	.	.
4r	.	.	4r	.	8G/	.	8e 8c/	.	4ee\	.	.	.	.	.	.	.	.	.	.	.	.	.	.	.	.	.	.	.	.	.	.	.	.	.	.
.	.	.	.	.	8G/J	.	8eJ 8c/	.	.	.	.	.	.	.	.	.	.	.	.	.	.	.	.	.	.	.	.	.	.	.	.	.	.	.	.
!	!	!	!	!	!	!	!	!	!	!	!	!	!	!LO:SIC:s=2Bn\)	!	!	!	!	!	!	!	!	!	!	!	!	!	!	!	!	!	!	!	!	!
4G\	n	.	4G\	.	8G/L	.	8dL 8Bn/	.	4r	.	.	.	.	2Bn\	.	.	.	.	.	2dd\)	.	.	.	.	.	.	.	.	.	.	.	.	.	.	.
.	.	.	.	.	8G/	.	8d 8B/	.	.	.	.	.	.	.	.	.	.	.	.	.	.	.	.	.	.	.	.	.	.	.	.	.	.	.	.
4r	.	.	4r	.	8G/	.	8d 8B/	.	4dd\	.	.	.	.	.	.	.	.	.	.	.	.	.	.	.	.	.	.	.	.	.	.	.	.	.	.
.	.	.	.	.	8G/J	.	8dJ 8B/	.	.	.	.	.	.	.	.	.	.	.	.	.	.	.	.	.	.	.	.	.	.	.	.	.	.	.	.
!	!	!	!LO:LB:g=original	!	!	!	!	!	!	!	!	!	!	!	!	!	!	!	!	!	!	!	!	!	!	!	!	!LO:LB:g=original	!	!	!	!	!	!	!
=47	=47	=47	=47	=47	=47	=47	=47	=47	=47	=47	=47	=47	=47	=47	=47	=47	=47	=47	=47	=47	=47	=47	=47	=47	=47	=47	=47	=47	=47	=47	=47	=47	=47	=47	=47
!	!	!	!	!	!	!	!	!	!	!	!	!	!	!	!	!	!	!	!	!	!	!	!	!	!	!	!	!	!LO:MO:null:mod=!LO&colon;DY&colon;ed=brack	!	!	!	!	!	!
!	!	!	!	!	!	!	!	!	!	!	!	!	!	!	!	!	!	!	!	!	!	!	!	!	!	!	!	!	!	!	!	!	!	!	!
!	!	!	!	!	!	!	!	!	!	!	!	!LO:MO:mod=-num.	!	!	!LO:MO:mod=-num.	!	!	!LO:MO:mod=-num.	!	!	!	!	!	!	!LO:DY:a:rj	!	!	!	!LO:MO:null:mod=pp	!	!LO:DY:rj	!	!LO:DY:b	!	!
2C\	8_	.	2C/	.	8c\L	.	8eL 8G/	.	4cc\	.	2C/	-num	.	2c\	-num	.	2e\	-nam	.	2cc\	-num.	.	1ryy	1c	pp	1g	pp	2C/	.	1e	pp	[1cc	pp	1r	.
.	.	.	.	.	8c\	.	8e 8G/	.	.	.	.	.	.	.	.	.	.	.	.	.	.	.	.	.	.	.	.	.	.	.	.	.	.	.	.
.	.	.	.	.	8c\	.	8e 8G/	.	4r	.	.	.	.	.	.	.	.	.	.	.	.	.	.	.	.	.	.	.	.	.	.	.	.	.	.
.	.	.	.	.	8c\J	.	8eJ 8G/	.	.	.	.	.	.	.	.	.	.	.	.	.	.	.	.	.	.	.	.	.	.	.	.	.	.	.	.
4E\	.	.	4E/	.	8c\L	.	8eL 8G/	.	2r	.	2r	.	.	2r	.	.	2r	.	.	2r	.	.	.	.	.	.	.	4E\	.	.	.	.	.	.	.
.	.	.	.	.	8c\	.	8e 8G/	.	.	.	.	.	.	.	.	.	.	.	.	.	.	.	.	.	.	.	.	.	.	.	.	.	.	.	.
4G\	.	.	4G/	.	8c\	.	8e 8G/	.	.	.	.	.	.	.	.	.	.	.	.	.	.	.	.	.	.	.	.	4G\	.	.	.	.	.	.	.
.	.	.	.	.	8c\J	.	8eJ 8G/	.	.	.	.	.	.	.	.	.	.	.	.	.	.	.	.	.	.	.	.	.	.	.	.	.	.	.	.
!	!	!	!	!	!	!	!	!	!	!	!	!	!	!	!	!	!LO:TX:b:rj:t=V&colon; S&colon;:mod=	!	!	!	!	!	!	!	!	!	!	!	!	!	!	!	!	!	!
!	!	!	!	!	!	!	!	!	!	!	!LO:LB:g=original	!	!	!	!	!	!LO:PB:g=original	!	!	!	!	!	!	!	!	!	!	!	!	!	!	!	!	!	!
=48	=48	=48	=48	=48	=48	=48	=48	=48	=48	=48	=48	=48	=48	=48	=48	=48	=48	=48	=48	=48	=48	=48	=48	=48	=48	=48	=48	=48	=48	=48	=48	=48	=48	=48	=48
*	*	*	*	*	*rep	*	*rep	*	*	*	*	*	*	*	*	*	*	*	*	*	*	*	*	*	*	*	*	*	*	*	*	*	*	*	*
2c\	X	.	2c\	.	8c\L	.	8eL 8G/	.	4r	.	2C/	Glo-	.	2G/	Glo-	.	2e\	Glo-	.	2cc\	Glo-	.	1ryy	1c	.	1g	.	2c\	.	1e	.	1cc]	.	1r	.
.	.	.	.	.	8c\	.	8e 8G/	.	.	.	.	.	.	.	.	.	.	.	.	.	.	.	.	.	.	.	.	.	.	.	.	.	.	.	.
.	.	.	.	.	8c\	.	8e 8G/	.	8ccc\L	.	.	.	.	.	.	.	.	.	.	.	.	.	.	.	.	.	.	.	.	.	.	.	.	.	.
.	.	.	.	.	8c\J	.	8eJ 8G/	.	8bbn\J	.	.	.	.	.	.	.	.	.	.	.	.	.	.	.	.	.	.	.	.	.	.	.	.	.	.
2r	.	.	2r	.	8c\L	.	8eL 8G/	.	4aa\	.	4C/	-ri-	.	4G/	-ri-	.	4e\	-ri-	.	4cc\	-ri-	.	.	.	.	.	.	2r	.	.	.	.	.	.	.
.	.	.	.	.	8c\	.	8e 8G/	.	.	.	.	.	.	.	.	.	.	.	.	.	.	.	.	.	.	.	.	.	.	.	.	.	.	.	.
.	.	.	.	.	8c\	.	8e 8G/	.	[4gg\	.	4C/	-a	.	4G/	-a	.	4e\	-a	.	4cc\	-a	.	.	.	.	.	.	.	.	.	.	.	.	.	.
.	.	.	.	.	8c\J	.	8eJ 8G/	.	.	.	.	.	.	.	.	.	.	.	.	.	.	.	.	.	.	.	.	.	.	.	.	.	.	.	.
*	*	*	*	*	*Xrep	*	*Xrep	*	*	*	*	*	*	*	*	*	*	*	*	*	*	*	*	*	*	*	*	*	*	*	*	*	*	*	*
!	!	!	!	!	!	!	!	!	!	!	!	!	!	!	!	!	!	!	!	!	!	!	!	!	!	!	!	!	!	!	!	!LO:LB:g=original	!	!	!
=49	=49	=49	=49	=49	=49	=49	=49	=49	=49	=49	=49	=49	=49	=49	=49	=49	=49	=49	=49	=49	=49	=49	=49	=49	=49	=49	=49	=49	=49	=49	=49	=49	=49	=49	=49
*	*	*	*	*	*rep	*	*rep	*	*	*	*	*	*	*	*	*	*	*	*	*	*	*	*	*	*	*	*	*	*	*	*	*	*	*	*
!LO:TX:a:t=1:mod=	!	!	!LO:TX:a:t=1:mod=	!	!	!	!	!	!	!	!	!LO:MO:mod=Pa-	!	!	!LO:MO:mod=Pa-	!	!	!LO:MO:mod=Pa-	!	!	!LO:MO:mod=Pa-	!	!	!	!	!	!	!LO:TX:a:t=1.:mod=	!	!	!	!	!	!	!
1r	.	.	1r	.	8c\L	.	8eL 8G/	.	4gg\]	.	2C/	pa-	.	2G/	pa-	.	2e\	pa-	.	2cc\	pa-	.	1ryy	1c	.	1g	.	1r	.	1e	.	1cc	.	1r	.
.	.	.	.	.	8c\	.	8e 8G/	.	.	.	.	.	.	.	.	.	.	.	.	.	.	.	.	.	.	.	.	.	.	.	.	.	.	.	.
.	.	.	.	.	8c\	.	8e 8G/	.	8aa\L	.	.	.	.	.	.	.	.	.	.	.	.	.	.	.	.	.	.	.	.	.	.	.	.	.	.
.	.	.	.	.	8c\J	.	8eJ 8G/	.	8gg\J	.	.	.	.	.	.	.	.	.	.	.	.	.	.	.	.	.	.	.	.	.	.	.	.	.	.
!	!	!	!	!	!	!	!	!	!	!	!	!LO:MO:mod=-tri,	!	!	!LO:MO:mod=-tri,	!	!	!LO:MO:mod=-tri,	!	!	!LO:MO:mod=-tri,	!	!	!	!	!	!	!	!	!	!	!	!	!	!
.	.	.	.	.	8c\L	.	8eL 8G/	.	4ff\	.	4C/	-tri	.	4G/	-tri	.	4e\	-tri	.	4cc\	-tri	.	.	.	.	.	.	.	.	.	.	.	.	.	.
.	.	.	.	.	8c\	.	8e 8G/	.	.	.	.	.	.	.	.	.	.	.	.	.	.	.	.	.	.	.	.	.	.	.	.	.	.	.	.
.	.	.	.	.	8c\	.	8e 8G/	.	4ee\	.	4C/	et	.	4G/	et	.	4e\	et	.	4cc\	et	.	.	.	.	.	.	.	.	.	.	.	.	.	.
.	.	.	.	.	8c\J	.	8eJ 8G/	.	.	.	.	.	.	.	.	.	.	.	.	.	.	.	.	.	.	.	.	.	.	.	.	.	.	.	.
*	*	*	*	*	*Xrep	*	*Xrep	*	*	*	*	*	*	*	*	*	*	*	*	*	*	*	*	*	*	*	*	*	*	*	*	*	*	*	*
!	!	!	!	!	!	!	!	!	!	!	!	!	!	!LO:LB:g=original	!	!	!	!	!	!LO:LB:g=original	!	!	!	!	!	!	!	!	!	!	!	!	!	!	!
=50	=50	=50	=50	=50	=50	=50	=50	=50	=50	=50	=50	=50	=50	=50	=50	=50	=50	=50	=50	=50	=50	=50	=50	=50	=50	=50	=50	=50	=50	=50	=50	=50	=50	=50	=50
!	!	!	!	!	!	!	!	!	!	!	!	!LO:MO:mod=Fi-	!	!	!LO:MO:mod=Fi-	!	!	!LO:MO:mod=Fi-	!	!	!LO:MO:mod=Fi-	!	!	!	!	!	!	!	!	!	!	!	!	!	!
4r	.	.	4r	.	8d\L	.	8fL 8G/	.	4dd\	.	2.BBn/	fi-	.	2.G/	fi-	.	2.f\	fi-	.	2.dd\	fi-	.	1ryy	1g	.	1g	.	4r	.	1f	.	1dd	.	1r	.
.	.	.	.	.	8d\	.	8f 8G/	.	.	.	.	.	.	.	.	.	.	.	.	.	.	.	.	.	.	.	.	.	.	.	.	.	.	.	.
8BBn/L	6 5	.	8BBn/L	.	8d\	.	8f 8G/	.	4r	.	.	.	.	.	.	.	.	.	.	.	.	.	.	.	.	.	.	8BBn/L	.	.	.	.	.	.	.
8AA/J	.	.	8AA/J	.	8d\J	.	8fJ 8G/	.	.	.	.	.	.	.	.	.	.	.	.	.	.	.	.	.	.	.	.	8AA/J	.	.	.	.	.	.	.
4GG/	.	.	4GG/	.	8d\L	.	8fL 8G/	.	2r	.	.	.	.	.	.	.	.	.	.	.	.	.	.	.	.	.	.	4GG/	.	.	.	.	.	.	.
.	.	.	.	.	8d\	.	8f 8G/	.	.	.	.	.	.	.	.	.	.	.	.	.	.	.	.	.	.	.	.	.	.	.	.	.	.	.	.
4BB/	.	.	4BB/	.	8d\	.	8f 8G/	.	.	.	4BB/	-li-	.	4G/	-li-	.	4f\	-li-	.	4dd\	-li-	.	.	.	.	.	.	4BB/	.	.	.	.	.	.	.
.	.	.	.	.	8d\J	.	8fJ 8G/	.	.	.	.	.	.	.	.	.	.	.	.	.	.	.	.	.	.	.	.	.	.	.	.	.	.	.	.
!LO:LB:g=original	!	!	!	!	!	!	!	!	!	!	!	!	!	!	!	!	!	!	!	!	!	!	!	!	!	!	!	!	!	!	!	!	!	!	!
=51	=51	=51	=51	=51	=51	=51	=51	=51	=51	=51	=51	=51	=51	=51	=51	=51	=51	=51	=51	=51	=51	=51	=51	=51	=51	=51	=51	=51	=51	=51	=51	=51	=51	=51	=51
!	!	!	!	!	!	!	!	!	!LO:TX:a:t=1:mod=	!	!	!LO:MO:mod=-o,	!	!	!LO:MO:mod=-o,	!	!	!LO:MO:mod=-o,	!	!	!LO:MO:mod=-o,	!	!	!	!	!	!	!	!	!	!	!	!	!	!
4C/	8	.	4C/	.	8c\L	.	8eL 8G/	.	1r	.	2C/	-o	.	2G/	-o	.	2e\	-o	.	2cc\	-o	.	1ryy	2.c/	.	2.g\	.	4C/	.	2.e/	.	2.cc\	.	1r	.
.	.	.	.	.	8c\	.	8e 8G/	.	.	.	.	.	.	.	.	.	.	.	.	.	.	.	.	.	.	.	.	.	.	.	.	.	.	.	.
4r	.	.	4r	.	8c\	.	8e 8G/	.	.	.	.	.	.	.	.	.	.	.	.	.	.	.	.	.	.	.	.	4r	.	.	.	.	.	.	.
.	.	.	.	.	8c\J	.	8eJ 8G/	.	.	.	.	.	.	.	.	.	.	.	.	.	.	.	.	.	.	.	.	.	.	.	.	.	.	.	.
*	*	*	*	*	*Xtremolo	*	*Xtremolo	*	*	*	*	*	*	*	*	*	*	*	*	*	*	*	*	*	*	*	*	*	*	*	*	*	*	*	*
2r	.	.	2r	.	4c\	.	4e 4G/	.	.	.	4C/	et	.	4G/	et	.	4e\	et	.	4cc\	et	.	.	.	.	.	.	2r	.	.	.	.	.	.	.
!	!	!	!	!	!	!	!	!	!	!	!	!LO:MO:mod=Spi-	!	!	!LO:MO:mod=Spi-	!	!	!LO:MO:mod=Spi-	!	!	!LO:MO:mod=Spi-	!	!	!	!	!	!	!	!	!	!	!	!	!	!
.	.	.	.	.	4r	.	4r	.	.	.	4C/	spi-	.	4G/	spi-	.	4e\	spi-	.	4cc\	spi-	.	.	4r	.	4r	.	.	.	4r	.	4r	.	.	.
!	!	!	!	!	!	!	!	!	!	!	!LO:LB:g=original	!	!	!	!	!	!LO:LB:g=original	!	!	!	!	!	!	!	!	!	!	!	!	!	!	!	!	!	!
=52	=52	=52	=52	=52	=52	=52	=52	=52	=52	=52	=52	=52	=52	=52	=52	=52	=52	=52	=52	=52	=52	=52	=52	=52	=52	=52	=52	=52	=52	=52	=52	=52	=52	=52	=52
!	!	!	!	!LO:MO:null:mod=!LO&colon;DY&colon;ed=brack	!	!	!	!	!	!	!	!	!	!	!	!	!	!	!	!	!	!	!	!	!	!	!	!	!	!	!	!	!	!	!
!	!	!	!	!	!	!	!	!	!	!	!	!	!	!	!	!	!	!	!	!	!	!	!	!	!	!	!	!	!	!	!	!	!	!	!
!LO:TX:a:i:t=Serzo:mod=senza	!	!LO:DY:b:rj:t=p.	!	!LO:MO:null:mod=p	!	!	!	!	!	!	!	!	!	!	!	!	!	!	!	!LO:SIC:s=1b-	!	!	!	!LO:TX:a:t=4.:mod=	!	!LO:TX:a:t=4.:mod=	!	!LO:TX:a:t=3.:mod=	!	!LO:TX:a:t=3.:mod=	!	!LO:TX:a:t=3.:mod=	!	!	!
4D\	.	p	4D\	.	2r	.	2r	.	2r	.	1D	-ri-	.	1F	-ri-	.	1f	-ri-	.	1b-X	-ri-	.	1ryy	00r	.	00r	.	0r	.	0r	.	0r	.	1r	.
4r	.	.	4r	.	.	.	.	.	.	.	.	.	.	.	.	.	.	.	.	.	.	.	.	.	.	.	.	.	.	.	.	.	.	.	.
!	!	!	!	!	!	!LO:DY:rj	!	!LO:DY:rj	!LO:SIC:s=4b-\	!LO:DY:rj	!	!	!	!	!	!	!	!	!	!	!	!	!	!	!	!	!	!	!	!	!	!	!	!	!
2r	.	.	2r	.	4d\	p	4f/	p	4b-X\	p	.	.	.	.	.	.	.	.	.	.	.	.	.	.	.	.	.	.	.	.	.	.	.	.	.
.	.	.	.	.	4r	.	4r	.	4r	.	.	.	.	.	.	.	.	.	.	.	.	.	.	.	.	.	.	.	.	.	.	.	.	.	.
!	!	!	!LO:LB:g=original	!	!	!	!	!	!	!	!	!	!	!	!	!	!	!	!	!	!	!	!	!	!	!	!	!	!	!	!	!	!	!	!
=53	=53	=53	=53	=53	=53	=53	=53	=53	=53	=53	=53	=53	=53	=53	=53	=53	=53	=53	=53	=53	=53	=53	=53	=53	=53	=53	=53	=53	=53	=53	=53	=53	=53	=53	=53
4E\	.	.	4E\	.	2r	.	2r	.	2r	.	1E	-tui	.	1G	-tui	.	1c	-tui	.	2r	.	.	1ryy	.	.	.	.	.	.	.	.	.	.	1r	.
4r	.	.	4r	.	.	.	.	.	.	.	.	.	.	.	.	.	.	.	.	.	.	.	.	.	.	.	.	.	.	.	.	.	.	.	.
!	!	!	!	!	!	!	!	!	!LO:SIC:s=4b-\	!	!	!	!	!	!	!	!	!	!	!	!	!	!	!	!	!	!	!	!	!	!	!	!	!	!
2r	.	.	2r	.	4c\	.	4g 4c/	.	4b-X\	.	.	.	.	.	.	.	.	.	.	2b-\	-tui	.	.	.	.	.	.	.	.	.	.	.	.	.	.
.	.	.	.	.	4r	.	4r	.	4r	.	.	.	.	.	.	.	.	.	.	.	.	.	.	.	.	.	.	.	.	.	.	.	.	.	.
!	!	!	!	!	!LO:LB:g=original	!	!	!	!	!	!	!	!	!	!	!	!	!	!	!	!	!	!	!	!	!	!	!	!	!	!	!	!	!	!
=54	=54	=54	=54	=54	=54	=54	=54	=54	=54	=54	=54	=54	=54	=54	=54	=54	=54	=54	=54	=54	=54	=54	=54	=54	=54	=54	=54	=54	=54	=54	=54	=54	=54	=54	=54
4F\	.	.	4F\	.	2r	.	2r	.	2r	.	1F	San-	.	1F	San-	.	1c	San-	.	1a	San-	.	1ryy	.	.	.	.	1r	.	1r	.	1r	.	1r	.
4r	.	.	4r	.	.	.	.	.	.	.	.	.	.	.	.	.	.	.	.	.	.	.	.	.	.	.	.	.	.	.	.	.	.	.	.
2r	.	.	2r	.	4c\	.	4f 4c/	.	4a/	.	.	.	.	.	.	.	.	.	.	.	.	.	.	.	.	.	.	.	.	.	.	.	.	.	.
.	.	.	.	.	4r	.	4r	.	4r	.	.	.	.	.	.	.	.	.	.	.	.	.	.	.	.	.	.	.	.	.	.	.	.	.	.
!	!	!	!	!	!	!	!LO:LB:g=original	!	!LO:LB:g=original	!	!	!	!	!	!	!	!	!	!	!	!	!	!	!	!	!	!	!	!	!	!	!	!	!	!
=55	=55	=55	=55	=55	=55	=55	=55	=55	=55	=55	=55	=55	=55	=55	=55	=55	=55	=55	=55	=55	=55	=55	=55	=55	=55	=55	=55	=55	=55	=55	=55	=55	=55	=55	=55
!	!	!	!	!	!	!LO:MO:null:mod=!LO&colon;DY&colon;ed=brack	!	!	!	!	!	!	!	!	!	!	!	!	!	!	!	!	!	!	!	!	!	!	!	!	!	!	!	!	!
!	!	!	!	!	!	!	!	!	!	!	!	!	!	!	!	!	!	!	!	!	!	!	!	!	!	!	!	!	!	!	!	!	!	!	!
!	!	!	!	!	!	!LO:MO:null:mod=f	!	!	!	!	!	!LO:MO:mod=-cto.	!	!	!LO:MO:mod=-cto.	!	!	!LO:MO:mod=-cto.	!	!	!LO:MO:mod=-cto.	!	!	!	!	!	!	!	!	!	!	!	!	!	!
4F\	.	ff	4F\	f	4f\	.	4a/	f	4a/	ff	4F\	-cto	.	4F/	-cto	.	4c\	-cto	.	4a\	-cto	.	1ryy	.	.	.	.	4r	.	4r	.	4r	.	4r	.
4A\	6	.	4A\	.	4A/	.	2f/	.	8ff\L	.	4r	.	.	4r	.	.	4r	.	.	8ff\	Si-	.	.	.	.	.	.	4A\	.	2f/	.	8ff\L	.	2ff\	.
.	5	.	.	.	.	.	.	.	8ee\J	.	.	.	.	.	.	.	.	.	.	8ee\	-cut	.	.	.	.	.	.	.	.	.	.	8ee\J	.	.	.
!	!	!	!	!	!	!	!	!	!	!	!	!	!	!	!	!	!	!	!	!	!	!	!	!	!	!	!	!LO:SIC:s=4B-\	!	!	!	!	!	!	!
4B-\	#3r	.	4B-\	.	4B-/	.	.	.	4dd\	.	4B-\	si-	.	4d\	Si-	.	4f\	Si-	.	4dd\	e-	.	.	.	.	.	.	4B-X\	.	.	.	4dd\	.	.	.
4A\	6 #5	.	4A\	.	4A/	.	4f#X/	.	4cc\	.	4A\	-cut	.	4d\	-cut	.	4f#X\	-cut	.	4cc\	-rat	.	.	.	.	.	.	4A\	.	4f#X/	.	4cc\	.	4ff#X\	.
!	!	!	!	!	!	!	!	!	!	!	!	!	!	!LO:LB:g=original	!	!	!	!	!	!LO:LB:g=original	!	!	!	!	!	!	!	!	!	!	!	!	!	!	!
=56	=56	=56	=56	=56	=56	=56	=56	=56	=56	=56	=56	=56	=56	=56	=56	=56	=56	=56	=56	=56	=56	=56	=56	=56	=56	=56	=56	=56	=56	=56	=56	=56	=56	=56	=56
4G\	3	.	4G\	.	4G/	.	4g/	.	4b-\	.	4G\	e-	.	2d\	in	.	2g\	in	.	4b-\	in	.	1ryy	2r	.	2r	.	4G\	.	1g	.	4b-\	.	1gg	.
4F\	3	.	4F\	.	4F/	.	2g/	.	8a\L	.	4F\	-rat	.	.	.	.	.	.	.	8a\L	prin-	.	.	.	.	.	.	4F\	.	.	.	8a\L	.	.	.
.	2	.	.	.	.	.	.	.	8g\J	.	.	.	.	.	.	.	.	.	.	8g\J	.	.	.	.	.	.	.	.	.	.	.	8g\J	.	.	.
4E\	6 3_	.	4E\	.	4E/	.	.	.	4cc\	.	4E\	in	.	2c\	prin-	.	2g\	prin-	.	4cc\	-ci-	.	.	2c/	.	2g\	.	4E\	.	.	.	4cc\	.	.	.
!	!	!	!	!	!	!	!	!	!	!	!	!	!	!	!	!	!	!	!	!LO:SIC:s=([4b-\	!	!	!	!	!	!	!	!	!	!	!	!	!	!	!
8D\L	6 _	.	8D\L	.	8D/L	.	4g/	.	[4b-\	.	8D\L	prin-	.	.	.	.	.	.	.	[4b-\	-pi-	.	.	.	.	.	.	8D\L	.	.	.	[4b-\	.	.	.
8E\J	.	.	8E\J	.	8E/J	.	.	.	.	.	8E\J	.	.	.	.	.	.	.	.	.	.	.	.	.	.	.	.	8E\J	.	.	.	.	.	.	.
!	!	!	!	!	!	!	!	!	!	!	!LO:LB:g=original	!	!	!	!	!	!LO:LB:g=original	!	!	!	!	!	!	!	!	!	!	!	!	!	!	!	!	!	!
=57	=57	=57	=57	=57	=57	=57	=57	=57	=57	=57	=57	=57	=57	=57	=57	=57	=57	=57	=57	=57	=57	=57	=57	=57	=57	=57	=57	=57	=57	=57	=57	=57	=57	=57	=57
2.F\	4	.	2.F\	.	2.F/	.	1cc	.	4b-\]	.	4.F\	-ci-	.	4.c\	-ci-	.	4.f\	-ci-	.	4b-\]	.	.	1ryy	1f	.	2f\	.	2.F\	.	1cc	.	4b-\]	.	1ccc	.
!	!	!	!	!	!	!	!	!	!	!	!	!	!	!	!	!	!	!	!	!LO:SIC:s=8a\L	!	!	!	!	!	!	!	!	!	!	!	!	!	!	!
.	3	.	.	.	.	.	.	.	8a\L	.	.	.	.	.	.	.	.	.	.	(8a\L	.	.	.	.	.	.	.	.	.	.	.	8a\L	.	.	.
.	2	.	.	.	.	.	.	.	8g\J	.	8F\	-pi-	.	8c\	-pi-	.	8f\	-pi-	.	8g\J)	.	.	.	.	.	.	.	.	.	.	.	8g\J	.	.	.
!	!	!	!	!	!	!	!	!	!	!	!	!LO:MO:mod=-o,	!	!	!LO:MO:mod=-o,	!	!	!LO:MO:mod=-o,	!	!	!LO:MO:mod=-o,	!	!	!	!	!	!	!	!	!	!	!	!	!	!
.	3	.	.	.	.	.	.	.	4a\	.	4F\	-o	.	4c\	-o	.	4f\	-o	.	4a\	-o	.	.	.	.	2a\	.	.	.	.	.	4a\	.	.	.
(4AA/	6	.	4AA/	.	4A/	.	.	.	[4ff\	.	4AA/	et	.	4c\	et	.	4f\	et	.	4ff\	et	.	.	.	.	.	.	4AA/	.	.	.	[4ff\	.	.	.
=58	=58	=58	=58	=58	=58	=58	=58	=58	=58	=58	=58	=58	=58	=58	=58	=58	=58	=58	=58	=58	=58	=58	=58	=58	=58	=58	=58	=58	=58	=58	=58	=58	=58	=58	=58
!	!	!	!LO:SIC:s=(2GG/	!	!	!	!	!	!	!	!	!LO:MO:mod=nunc,	!	!	!LO:MO:mod=nunc,	!	!	!LO:MO:mod=nunc,	!	!LO:SIC:s=(4ff\	!LO:MO:mod=nunc,	!	!	!	!	!	!	!	!	!	!	!	!	!	!
2GG/)	7 3_	.	2GG/	.	(2G/	.	1b-	.	4ff\]	.	2GG/	nunc	.	2B-\	nunc	.	2g\	nunc	.	4ff\	nunc	.	1ryy	2g\	.	1g	.	2GG/	.	1b-	.	4ff\]	.	1bb-	.
!	!	!	!	!	!	!	!	!	!	!	!	!	!	!	!	!	!	!	!	!LO:SIC:s=8ee\L	!	!	!	!	!	!	!	!	!	!	!	!	!	!	!
.	6 _	.	.	.	.	.	.	.	8ee\L	.	.	.	.	.	.	.	.	.	.	(8ee\L	.	.	.	.	.	.	.	.	.	.	.	8ee\L	.	.	.
.	5 _	.	.	.	.	.	.	.	8dd\J	.	.	.	.	.	.	.	.	.	.	8dd\J)	.	.	.	.	.	.	.	.	.	.	.	8dd\J	.	.	.
!	!	!	!LO:SIC:s=2C/)	!	!	!	!	!	!	!	!	!	!	!	!	!	!	!	!	!	!	!	!	!	!	!	!	!	!	!	!	!	!	!	!
2C/	10 _	.	2C/	.	2c/)	.	.	.	8ee\L	.	2C/	et	.	2B-\	et	.	2g\	et	.	8ee\L	et	.	.	2c/	.	.	.	2E\	.	.	.	2ee\	.	.	.
!	!	!	!	!	!	!	!	!	!	!	!	!	!	!	!	!	!	!	!	!LO:SIC:s=8cc\	!	!	!	!	!	!	!	!	!	!	!	!	!	!	!
.	8 _	.	.	.	.	.	.	.	8cc\	.	.	.	.	.	.	.	.	.	.	(8cc\	.	.	.	.	.	.	.	.	.	.	.	.	.	.	.
.	9 _	.	.	.	.	.	.	.	8dd\	.	.	.	.	.	.	.	.	.	.	8dd\	.	.	.	.	.	.	.	.	.	.	.	.	.	.	.
!	!	!	!	!	!	!	!	!	!	!	!	!	!	!	!	!	!	!	!	!LO:SIC:s=8ee\J	!	!	!	!	!	!	!	!	!	!	!	!	!	!	!
.	10 _	.	.	.	.	.	.	.	8ee\J	.	.	.	.	.	.	.	.	.	.	8ee\J)	.	.	.	.	.	.	.	.	.	.	.	.	.	.	.
!LO:LB:g=original	!	!	!LO:LB:g=original	!	!	!	!	!	!	!	!	!	!	!	!	!	!	!	!	!	!	!	!	!	!	!	!	!	!	!	!	!	!	!	!
=59	=59	=59	=59	=59	=59	=59	=59	=59	=59	=59	=59	=59	=59	=59	=59	=59	=59	=59	=59	=59	=59	=59	=59	=59	=59	=59	=59	=59	=59	=59	=59	=59	=59	=59	=59
!	!	!	!	!	!	!	!	!	!	!	!	!	!	!	!LO:MO:mod=sem-	!	!	!LO:MO:mod=sem-	!	!	!	!	!	!	!	!	!	!	!	!	!	!	!	!	!
4FF/	8	.	4FF/	.	4F/	.	4a/	.	4ff\	.	4F\	sem-	.	4A\	Sem-	.	4f\	Sem-	.	4ff\	sem-	.	1ryy	4f\	.	4a\	.	4FF/	.	4a\	.	4ff\	.	4aa\	.
!	!	!	!	!	!	!	!	!	!	!	!	!LO:MO:mod=-per,	!	!	!LO:MO:mod=-per,	!	!	!LO:MO:mod=-per,	!	!	!LO:MO:mod=-per,	!	!	!	!	!	!	!	!	!	!	!	!	!LO:SIC:s=(8fff\L	!
4A\	6	.	4A\	.	4A/	.	8ff\L	.	2ff\	.	8F\	-per	.	8f\L	-per	.	8f\	-per	.	8ff\	-per	.	.	4r	.	4r	.	4A\	.	(8ff\L	.	2ff\	.	8fff\L	.
!	!	!	!	!	!	!	!	!	!	!	!	!	!	!	!	!	!	!	!	!	!	!	!	!	!	!	!	!	!	!	!	!	!	!LO:SIC:s=8eee\J)	!
.	.	.	.	.	.	.	8ee\J	.	.	.	8r	.	.	8e\J	.	.	8r	.	.	8r	.	.	.	.	.	.	.	.	.	8ee\J)	.	.	.	8eee\J	.
4B-\	3	.	4B-\	.	4B-/	.	4dd\	.	.	.	4B-\	et	.	4d\	et	.	4f\	et	.	4dd\	et	.	.	2r	.	2r	.	4B-\	.	4dd\	.	.	.	4ddd\	.
4A\	#6 4 3	.	4A\	.	4A/	.	4cc\	.	4ff#X\	.	4A\	in	.	4c\	in	.	4f#X\	in	.	4dd\	in	.	.	.	.	.	.	4A\	.	4cc\	.	4ff#X\	.	4ccc\	.
!	!	!	!	!	!	!	!	!	!	!	!LO:PB:g=original	!	!	!LO:LB:g=original	!	!	!LO:LB:g=original	!	!	!LO:LB:g=original	!	!	!	!	!	!	!	!LO:LB:g=original	!	!LO:LB:g=original	!	!	!	!LO:LB:g=original	!
=60	=60	=60	=60	=60	=60	=60	=60	=60	=60	=60	=60	=60	=60	=60	=60	=60	=60	=60	=60	=60	=60	=60	=60	=60	=60	=60	=60	=60	=60	=60	=60	=60	=60	=60	=60
!	!	!	!	!	!	!	!	!	!	!	!	!LO:MO:mod=sae-	!	!	!LO:MO:mod=sae-	!	!	!LO:MO:mod=sae-	!	!	!	!	!	!	!	!	!	!	!	!	!	!	!	!	!
4G\	3	.	4G\	.	4G/	.	4b-\	.	4gg\	.	(4G\	se-	.	4B-\	Se-	.	2g\	se-	.	2dd\	sae-	.	1ryy	2r	.	2r	.	4G\	.	4b-\	.	4gg\	.	4bb-\	.
4F\	3	.	4F\	.	4F/	.	8a\L	.	2gg\	.	4F\)	.	.	8A\	-cu-	.	.	.	.	.	.	.	.	.	.	.	.	4F\	.	8a\L	.	2gg\	.	8aa\L	.
.	2	.	.	.	.	.	8g\J	.	.	.	.	.	.	8G\	-la	.	.	.	.	.	.	.	.	.	.	.	.	.	.	8g\J	.	.	.	8gg\J	.
!	!	!	!	!	!	!	!	!	!	!	!	!	!	!	!LO:MO:mod=sae-	!	!	!	!	!	!	!	!	!	!	!	!	!	!	!	!	!	!	!	!
4E\	6 3_	.	4E\	.	4E/	.	4cc\	.	.	.	(4E\	-cu-	.	4c\	se-	.	2g\	-cu-	.	2cc\	-cu-	.	.	2c/	.	2g\	.	4E\	.	4cc\	.	.	.	4ccc\	.
!	!	!	!	!	!	!	!	!	!	!	!	!	!	!	!	!	!	!	!	!	!	!	!	!	!	!	!	!	!	!	!	!	!	!LO:SIC:s=[4bb-\	!
8D\L	5 _	.	8D\L	.	8D/L	.	[4b-\	.	4gg\	.	8D\L	.	.	4B-\	-cu-	.	.	.	.	.	.	.	.	.	.	.	.	8D\L	.	[4b-\	.	4gg\	.	4bb-\	.
8E\J	.	.	8E\J	.	8E/J	.	.	.	.	.	8E\J)	.	.	.	.	.	.	.	.	.	.	.	.	.	.	.	.	8E\J	.	.	.	.	.	.	.
!	!	!	!	!	!LO:LB:g=original	!	!	!	!	!	!	!	!	!	!	!	!	!	!	!	!	!	!	!	!	!	!	!	!	!	!	!	!	!	!
=61	=61	=61	=61	=61	=61	=61	=61	=61	=61	=61	=61	=61	=61	=61	=61	=61	=61	=61	=61	=61	=61	=61	=61	=61	=61	=61	=61	=61	=61	=61	=61	=61	=61	=61	=61
!	!	!	!	!	!	!	!	!	!	!	!	!	!	!	!	!	!	!	!	!	!	!	!	!	!	!	!	!	!	!	!	!	!	!LO:SIC:s=4bb-\]	!
2.F\	3	.	2.F\	.	2.F/	.	4b-\]	.	1ccc	.	2F\	-la	.	(4B-\	-lo-	.	2f\	-la	.	2cc\	-la	.	1ryy	1f	.	2f\	.	2.F\	.	4b-\]	.	1ccc	.	4bb-\	.
.	.	.	.	.	.	.	8a\L	.	.	.	.	.	.	8A\L	.	.	.	.	.	.	.	.	.	.	.	.	.	.	.	8a\L	.	.	.	8aa\L	.
.	.	.	.	.	.	.	8g\J	.	.	.	.	.	.	8G\J)	.	.	.	.	.	.	.	.	.	.	.	.	.	.	.	8g\J	.	.	.	8gg\J	.
!	!	!	!	!	!	!	!	!	!	!	!	!LO:MO:mod=sae-	!	!	!LO:MO:mod=-rum.	!	!	!LO:MO:mod=sae-	!	!	!	!	!	!	!	!	!	!	!	!	!	!	!	!	!
.	.	.	.	.	.	.	4a\	.	.	.	4F\	se-	.	4A\	-rum	.	4f\	se-	.	4cc\	sae-	.	.	.	.	2a\	.	.	.	4a\	.	.	.	4aa\	.
!	!	!	!	!	!	!	!	!	!	!	!	!	!	!LO:SIC:s=(4f\	!LO:MO:mod=A-	!	!	!	!	!	!	!	!	!	!	!	!	!	!	!	!	!	!	!LO:SIC:s=[4fff\	!
4AA/	6	.	4AA/	.	4A/	.	[4ff\	.	.	.	4AA/	-cu-	.	4f\	a-	.	4f\	-cu-	.	4cc\	-cu-	.	.	.	.	.	.	4AA/	.	[4ff\	.	.	.	4fff\	.
!	!	!	!	!	!	!	!	!	!LO:LB:g=original	!	!	!	!	!	!	!	!	!	!	!	!	!	!	!	!	!LO:LB:g=original	!	!	!	!	!	!	!	!	!
=62	=62	=62	=62	=62	=62	=62	=62	=62	=62	=62	=62	=62	=62	=62	=62	=62	=62	=62	=62	=62	=62	=62	=62	=62	=62	=62	=62	=62	=62	=62	=62	=62	=62	=62	=62
!	!	!	!	!	!	!	!	!	!	!	!	!	!	!	!	!	!	!	!	!	!	!	!	!	!	!	!	!	!	!	!	!	!	!LO:SIC:s=4fff\]	!
2GG/	7	.	2GG/	.	2G/	.	4ff\]	.	1bb-	.	2GG/	-lo-	.	4f\	.	.	2g\	-lo-	.	2b-\	-lo-	.	1ryy	2f\	.	1g	.	2GG/	.	4ff\]	.	1bb-	.	4fff\	.
!	!	!	!	!	!	!	!	!	!	!	!	!	!	!LO:SIC:s=8e\L	!	!	!	!	!	!	!	!	!	!	!	!	!	!	!	!	!	!	!	!LO:SIC:s=(8eee\L	!
.	.	.	.	.	.	.	8ee\L	.	.	.	.	.	.	(8e\L	.	.	.	.	.	.	.	.	.	.	.	.	.	.	.	(8ee\L	.	.	.	8eee\L	.
!	!	!	!	!	!	!	!	!	!	!	!	!	!	!	!	!	!	!	!	!	!	!	!	!	!	!	!	!	!	!	!	!	!	!LO:SIC:s=8ddd\J)	!
.	.	.	.	.	.	.	8dd\J	.	.	.	.	.	.	8d\J	.	.	.	.	.	.	.	.	.	.	.	.	.	.	.	8dd\J)	.	.	.	8ddd\J	.
!	!	!	!	!	!	!	!	!	!	!	!	!LO:MO:mod=-rum.	!	!	!	!	!	!LO:MO:mod=-rum.	!	!	!LO:MO:mod=-rum.	!	!	!	!	!	!	!	!	!	!	!	!	!	!
2C/	7	.	2C/	.	2c\	.	8ee\L	.	.	.	2C/	-rum	.	8e\L	.	.	2g\	-rum	.	2b-\	-rum	.	.	2c/	.	.	.	2C/	.	2ee\	.	.	.	8eee\L	.
.	.	.	.	.	.	.	8cc\	.	.	.	.	.	.	8c\	.	.	.	.	.	.	.	.	.	.	.	.	.	.	.	.	.	.	.	8ccc\	.
.	.	.	.	.	.	.	8dd\	.	.	.	.	.	.	8d\	.	.	.	.	.	.	.	.	.	.	.	.	.	.	.	.	.	.	.	8ddd\	.
.	.	.	.	.	.	.	8ee\J	.	.	.	.	.	.	8e\J)	.	.	.	.	.	.	.	.	.	.	.	.	.	.	.	.	.	.	.	8eee\J	.
!	!	!	!	!	!	!	!LO:LB:g=original	!	!	!	!LO:LB:g=original	!	!	!LO:LB:g=original	!	!	!	!	!	!	!	!	!	!LO:LB:g=original	!	!	!	!	!	!	!	!	!	!	!
=63	=63	=63	=63	=63	=63	=63	=63	=63	=63	=63	=63	=63	=63	=63	=63	=63	=63	=63	=63	=63	=63	=63	=63	=63	=63	=63	=63	=63	=63	=63	=63	=63	=63	=63	=63
*	*	*	*	*	*	*	*tremolo	*	*tremolo	*	*	*	*	*	*	*	*	*	*	*	*	*	*	*	*	*	*	*	*	*	*	*	*	*	*
!	!	!	!	!	!	!	!	!	!	!	!LO:SIC:s=([4F\	!LO:MO:mod=A-	!	!	!LO:MO:mod=-men,	!	!	!LO:MO:mod=A-	!	!LO:SIC:s=(1a	!	!	!	!	!	!	!	!	!	!	!	!	!	!	!
4FF/	3_	.	4FF/	.	4F/	.	8ffL 8cc\	.	8aa\L	.	4F\	a-	.	4f\	-men	.	1f	a-	.	1a	A-	.	1ryy	1f	.	1a	.	4FF/	.	2ff\	.	2aa\	.	1fff	.
.	.	.	.	.	.	.	8ff 8cc\	.	8aa\	.	.	.	.	.	.	.	.	.	.	.	.	.	.	.	.	.	.	.	.	.	.	.	.	.	.
!	!	!	!	!	!	!	!	!	!	!	!LO:SIC:s=8F\L]	!	!	!LO:SIC:s=(4c\	!	!	!	!	!	!	!	!	!	!	!	!	!	!	!	!	!	!	!	!	!
8F\L	.	.	8F\L	.	8f\L	.	8ff 8cc\	.	8aa\	.	8F\L	.	.	4c\	a-	.	.	.	.	.	.	.	.	.	.	.	.	8F\L	.	.	.	.	.	.	.
8E\J	.	.	8E\J	.	8e\J	.	8ffJ 8cc\	.	8aa\J	.	8E\J	.	.	.	.	.	.	.	.	.	.	.	.	.	.	.	.	8E\J	.	.	.	.	.	.	.
!	!	!	!	!	!	!	!	!	!	!	!	!	!	!LO:SIC:s=[2d\	!	!	!	!	!	!	!	!	!	!	!	!	!	!	!	!	!	!	!	!	!
4D\	5_	.	4D\	.	4d\	.	8ffL 8dd\	.	8aa\L	.	4D/	.	.	2d\	.	.	.	.	.	.	.	.	.	.	.	.	.	4D\	.	2ff\	.	[2ff\	.	.	.
.	.	.	.	.	.	.	8ff 8dd\	.	8aa\	.	.	.	.	.	.	.	.	.	.	.	.	.	.	.	.	.	.	.	.	.	.	.	.	.	.
4C\	.	.	4C\	.	4c\	.	8ff 8dd\	.	8aa\	.	4C/	.	.	.	.	.	.	.	.	.	.	.	.	.	.	.	.	4C\	.	.	.	.	.	.	.
.	.	.	.	.	.	.	8ffJ 8dd\	.	8aa\J	.	.	.	.	.	.	.	.	.	.	.	.	.	.	.	.	.	.	.	.	.	.	.	.	.	.
!	!	!	!LO:LB:g=original	!	!	!	!	!	!	!	!	!	!	!	!	!	!LO:LB:g=original	!	!	!	!	!	!	!	!	!	!	!	!	!	!	!LO:LB:g=original	!	!	!
=64	=64	=64	=64	=64	=64	=64	=64	=64	=64	=64	=64	=64	=64	=64	=64	=64	=64	=64	=64	=64	=64	=64	=64	=64	=64	=64	=64	=64	=64	=64	=64	=64	=64	=64	=64
!	!	!	!	!	!	!	!	!	!	!	!	!	!	!LO:SIC:s=1d])	!	!	!	!LO:MO:mod=-men,	!	!LO:SIC:s=1b-)	!	!	!	!	!	!	!	!	!	!	!	!LO:TX:t=P:problem=brak zakończenia ligatury	!	!	!
4BB-/	8	.	4BB-/	.	4B-/	.	8ffL 8dd\	.	8bb-\L	.	4BB-/	.	.	1d	.	.	2f\	-men	.	1b-	.	.	1ryy	2r	.	2r	.	4BB-/	.	1dd	.	2ff\]	.	2fff\	.
.	.	.	.	.	.	.	8ff 8dd\	.	8bb-\	.	.	.	.	.	.	.	.	.	.	.	.	.	.	.	.	.	.	.	.	.	.	.	.	.	.
!	!	!	!	!	!	!	!	!	!	!	!LO:SIC:s=4AA/)	!	!	!	!	!	!	!	!	!	!	!	!	!	!	!	!	!	!	!	!	!	!	!	!
4AA/	.	.	4AA/	.	4A/	.	8ff 8dd\	.	8bb-\	.	4AA/	.	.	.	.	.	.	.	.	.	.	.	.	.	.	.	.	4AA/	.	.	.	.	.	.	.
.	.	.	.	.	.	.	8ffJ 8dd\	.	8bb-\J	.	.	.	.	.	.	.	.	.	.	.	.	.	.	.	.	.	.	.	.	.	.	.	.	.	.
!	!	!	!	!	!	!	!	!	!	!	!	!LO:MO:mod=-men,	!	!	!	!	!LO:SIC:s=[2g\	!LO:MO:mod=a-	!	!	!	!	!	!	!	!	!	!	!	!	!	!	!	!LO:SIC:s=[2ggg\	!
4GG/	10_	.	4GG/	.	4G/	.	8ggL 8dd\	.	8bb-\L	.	4GG/	-men	.	.	.	.	2g\	A-	.	.	.	.	.	2g\	.	2g\	.	4GG/	.	.	.	[2gg\	.	2ggg\	.
.	.	.	.	.	.	.	8gg 8dd\	.	8bb-\	.	.	.	.	.	.	.	.	.	.	.	.	.	.	.	.	.	.	.	.	.	.	.	.	.	.
!	!	!	!	!	!	!	!	!	!	!	!LO:SIC:s=(8G\L	!	!	!	!	!	!	!	!	!	!	!	!	!	!	!	!	!	!	!	!	!	!	!	!
8G\L	.	.	8G\L	.	8g\L	.	8gg 8dd\	.	8bb-\	.	8G\L	a-	.	.	.	.	.	.	.	.	.	.	.	.	.	.	.	8G\L	.	.	.	.	.	.	.
8F\J	.	.	8F\J	.	8f\J	.	8ggJ 8dd\	.	8bb-\J	.	8F\J	.	.	.	.	.	.	.	.	.	.	.	.	.	.	.	.	8F\J	.	.	.	.	.	.	.
!LO:LB:g=original	!	!	!	!	!	!	!	!	!	!	!	!	!	!	!	!	!	!	!	!	!	!	!	!	!	!	!	!	!	!	!	!	!	!	!
=65	=65	=65	=65	=65	=65	=65	=65	=65	=65	=65	=65	=65	=65	=65	=65	=65	=65	=65	=65	=65	=65	=65	=65	=65	=65	=65	=65	=65	=65	=65	=65	=65	=65	=65	=65
!	!	!	!	!	!	!	!	!	!	!	!	!	!	!	!LO:MO:mod=-men,	!	!LO:SIC:s=1g]	!	!	!	!LO:MO:mod=-men,	!	!	!	!	!	!	!	!	!	!	!	!	!LO:SIC:s=1ggg]	!
4E\	5_	.	4E\	.	4e\	.	8ggL 8ee\	.	8bb-\L	.	4E\	.	.	2e\	-men	.	1g	.	.	2b-\	-men	.	1ryy	2g\	.	2g\	.	4E\	.	1ee	.	2gg\]	.	1ggg	.
.	.	.	.	.	.	.	8gg 8ee\	.	8bb-\	.	.	.	.	.	.	.	.	.	.	.	.	.	.	.	.	.	.	.	.	.	.	.	.	.	.
4D\	.	.	4D\	.	4d\	.	8gg 8ee\	.	8bb-\	.	4D\	.	.	.	.	.	.	.	.	.	.	.	.	.	.	.	.	4D\	.	.	.	.	.	.	.
.	.	.	.	.	.	.	8ggJ 8ee\	.	8bb-\J	.	.	.	.	.	.	.	.	.	.	.	.	.	.	.	.	.	.	.	.	.	.	.	.	.	.
!	!	!	!	!	!	!	!	!	!	!	!	!	!	!LO:SIC:s=(2e\	!	!	!	!	!	!LO:SIC:s=[2cc\	!LO:MO:mod=a-	!	!	!	!	!	!	!	!	!	!	!	!	!	!
4C\	8_	.	4C\	.	4c\	.	8ggL 8ee\	.	8ccc\L	.	4C\	.	.	2e\	a-	.	.	.	.	2cc\	A-	.	.	2c/	.	2g\	.	4C\	.	.	.	(2gg\	.	.	.
.	.	.	.	.	.	.	8gg 8ee\	.	8ccc\	.	.	.	.	.	.	.	.	.	.	.	.	.	.	.	.	.	.	.	.	.	.	.	.	.	.
!	!	!	!	!	!	!	!	!	!	!	!LO:SIC:s=4BB-\)	!	!	!	!	!	!	!	!	!	!	!	!	!	!	!	!	!	!	!	!	!	!	!	!
4BB-\	.	.	4BB-\	.	4B-\	.	8gg 8ee\	.	8ccc\	.	4BB-\	.	.	.	.	.	.	.	.	.	.	.	.	.	.	.	.	4BB-\	.	.	.	.	.	.	.
.	.	.	.	.	.	.	8ggJ 8ee\	.	8ccc\J	.	.	.	.	.	.	.	.	.	.	.	.	.	.	.	.	.	.	.	.	.	.	.	.	.	.
!	!	!	!	!	!	!	!	!	!	!	!LO:LB:g=original	!	!	!	!	!	!	!	!	!	!	!	!	!	!	!	!	!	!	!	!	!	!	!	!
=66	=66	=66	=66	=66	=66	=66	=66	=66	=66	=66	=66	=66	=66	=66	=66	=66	=66	=66	=66	=66	=66	=66	=66	=66	=66	=66	=66	=66	=66	=66	=66	=66	=66	=66	=66
!	!	!	!	!	!	!	!	!	!	!	!	!LO:MO:mod=-men,	!	!	!	!	!	!LO:MO:mod=-men,	!	!LO:SIC:s=1cc]	!	!	!	!	!	!	!	!	!	!	!	!	!	!	!
4AA/	6_	.	4AA/	.	4A/	.	8aaL 8ee\	.	8ccc\L	.	4AA/	-men	.	2e\	.	.	2a\	-men	.	1cc	.	.	1ryy	2A/	.	2a\	.	4AA\	.	2ee\	.	2aa\)	.	2aaa\	.
.	.	.	.	.	.	.	8aa 8ee\	.	8ccc\	.	.	.	.	.	.	.	.	.	.	.	.	.	.	.	.	.	.	.	.	.	.	.	.	.	.
!	!	!	!	!	!	!	!	!	!	!	!LO:SIC:s=(8A\L	!	!	!	!	!	!	!	!	!	!	!	!	!	!	!	!	!	!	!	!	!	!	!	!
8A\L	.	.	8A\L	.	8a\L	.	8aa 8ee\	.	8ccc\	.	8A\L	a-	.	.	.	.	.	.	.	.	.	.	.	.	.	.	.	8A\L	.	.	.	.	.	.	.
8G\J	.	.	8G\J	.	8g\J	.	8aaJ 8ee\	.	8ccc\J	.	8G\J	.	.	.	.	.	.	.	.	.	.	.	.	.	.	.	.	8G\J	.	.	.	.	.	.	.
!	!	!	!	!	!	!	!	!	!	!	!	!	!	!LO:SIC:s=2f\)	!	!	!LO:SIC:s=([2a\	!LO:MO:mod=a-	!	!	!	!	!	!	!	!	!	!	!	!	!	!	!	!	!
4F\	5_	.	4F\	.	4f\	.	8aaL 8ff\	.	8ccc\L	.	4F\	.	.	2f\	.	.	[2a\	A-	.	.	.	.	.	2f\	.	2a\	.	4F\	.	2ff\	.	[2aa\	.	2ccc\	.
.	.	.	.	.	.	.	8aa 8ff\	.	8ccc\	.	.	.	.	.	.	.	.	.	.	.	.	.	.	.	.	.	.	.	.	.	.	.	.	.	.
4E\	.	.	4E\	.	4e\	.	8aa 8ff\	.	8ccc\	.	4E\	.	.	.	.	.	.	.	.	.	.	.	.	.	.	.	.	4E\	.	.	.	.	.	.	.
.	.	.	.	.	.	.	8aaJ 8ff\	.	8ccc\J	.	.	.	.	.	.	.	.	.	.	.	.	.	.	.	.	.	.	.	.	.	.	.	.	.	.
=67	=67	=67	=67	=67	=67	=67	=67	=67	=67	=67	=67	=67	=67	=67	=67	=67	=67	=67	=67	=67	=67	=67	=67	=67	=67	=67	=67	=67	=67	=67	=67	=67	=67	=67	=67
!	!	!	!	!	!	!	!	!	!	!	!	!	!	!	!LO:MO:mod=-men,	!	!	!	!	!	!LO:MO:mod=-men,	!	!	!	!	!	!	!	!	!	!	!	!	!	!
4D\	8_	.	4D\	.	4d\	.	8aaL 8ff\	.	8ddd\L	.	4D/	.	.	2f\	-men	.	2a\]	.	.	2dd\	-men	.	1ryy	2f\	.	2a\	.	4D/	.	1ff	.	2aa\]	.	1ddd	.
.	.	.	.	.	.	.	8aa 8ff\	.	8ddd\	.	.	.	.	.	.	.	.	.	.	.	.	.	.	.	.	.	.	.	.	.	.	.	.	.	.
!	!	!	!	!	!	!	!	!	!	!	!LO:SIC:s=4C/)	!	!	!	!	!	!	!	!	!	!	!	!	!	!	!	!	!	!	!	!	!	!	!	!
4C\	.	.	4C\	.	4c\	.	8aa 8ff\	.	8ddd\	.	4C/	.	.	.	.	.	.	.	.	.	.	.	.	.	.	.	.	4C/	.	.	.	.	.	.	.
.	.	.	.	.	.	.	8aaJ 8ff\	.	8ddd\J	.	.	.	.	.	.	.	.	.	.	.	.	.	.	.	.	.	.	.	.	.	.	.	.	.	.
!	!	!	!	!	!	!	!	!	!	!	!	!LO:MO:mod=-men,	!	!LO:SIC:s=(2f\	!	!	!LO:SIC:s=2b-\)	!	!	!	!LO:MO:mod=a-	!	!	!	!	!	!	!	!	!	!	!	!	!	!
4BB-/	10_	.	4BB-\	.	4B-\	.	8bb-L 8ff\	.	8ddd\L	.	4BB-/	-men	.	2f\	a-	.	2b-\	.	.	[2dd\	A-	.	.	2r	.	2r	.	4BB-/	.	.	.	[2bb-\	.	.	.
.	.	.	.	.	.	.	8bb- 8ff\	.	8ddd\	.	.	.	.	.	.	.	.	.	.	.	.	.	.	.	.	.	.	.	.	.	.	.	.	.	.
!	!	!	!	!	!	!	!	!	!	!	!LO:SIC:s=(8B-\L	!	!	!	!	!	!	!	!	!	!	!	!	!	!	!	!	!	!	!	!	!	!	!	!
8B-\L	.	.	8B-\L	.	8b-\L	.	8bb- 8ff\	.	8ddd\	.	8B-\L	a-	.	.	.	.	.	.	.	.	.	.	.	.	.	.	.	8B-\L	.	.	.	.	.	.	.
8A\J	.	.	8A\J	.	8a\J	.	8bb-J 8ff\	.	8ddd\J	.	8A\J	.	.	.	.	.	.	.	.	.	.	.	.	.	.	.	.	8A\J	.	.	.	.	.	.	.
!	!	!	!	!	!LO:LB:g=original	!	!	!	!	!	!	!	!	!LO:LB:g=original	!	!	!	!	!	!LO:LB:g=original	!	!	!	!	!	!	!	!LO:LB:g=original	!	!	!	!	!	!	!
=68	=68	=68	=68	=68	=68	=68	=68	=68	=68	=68	=68	=68	=68	=68	=68	=68	=68	=68	=68	=68	=68	=68	=68	=68	=68	=68	=68	=68	=68	=68	=68	=68	=68	=68	=68
!	!	!	!	!	!	!	!	!	!	!	!	!	!	!LO:SIC:s=[1g	!	!	!	!LO:MO:mod=-men,	!	!	!	!	!	!	!	!	!	!	!	!	!	!	!	!	!
4G\	5_	.	4G\	.	4g\	.	8bb-L 8gg\	.	8ddd\L	.	4G\	.	.	1g	.	.	2b-\	-men	.	2dd\]	.	.	1ryy	1g	.	1g	.	4G\	.	1gg	.	2bb-\]	.	2ddd\	.
.	.	.	.	.	.	.	8bb- 8gg\	.	8ddd\	.	.	.	.	.	.	.	.	.	.	.	.	.	.	.	.	.	.	.	.	.	.	.	.	.	.
4F\	.	.	4F\	.	4f\	.	8bb- 8gg\	.	8ddd\	.	4F\	.	.	.	.	.	.	.	.	.	.	.	.	.	.	.	.	4F\	.	.	.	.	.	.	.
.	.	.	.	.	.	.	8bb-J 8gg\	.	8ddd\J	.	.	.	.	.	.	.	.	.	.	.	.	.	.	.	.	.	.	.	.	.	.	.	.	.	.
!	!	!	!	!	!	!	!	!	!	!	!	!	!	!	!	!	!LO:SIC:s=([2b-\	!LO:MO:mod=a-	!	!LO:SIC:s=[2ee\	!LO:MO:mod=-men,	!	!	!	!	!	!	!	!	!	!	!	!	!	!
4E\	8_	.	4E\	.	4e\	.	8bb-L 8gg\	.	8eee\L	.	4E\	.	.	.	.	.	2b-\	A-	.	2ee\	-men	.	.	.	.	.	.	4E\	.	.	.	[2bb-\	.	2eee\	.
.	.	.	.	.	.	.	8bb- 8gg\	.	8eee\	.	.	.	.	.	.	.	.	.	.	.	.	.	.	.	.	.	.	.	.	.	.	.	.	.	.
4D\	.	.	4D\	.	4d\	.	8bb- 8gg\	.	8eee\	.	4D\	.	.	.	.	.	.	.	.	.	.	.	.	.	.	.	.	4D\	.	.	.	.	.	.	.
.	.	.	.	.	.	.	8bb-J 8gg\	.	8eee\J	.	.	.	.	.	.	.	.	.	.	.	.	.	.	.	.	.	.	.	.	.	.	.	.	.	.
!	!	!	!LO:LB:g=original	!	!	!	!	!	!	!	!LO:LB:g=original	!	!	!	!	!	!LO:LB:g=original	!	!	!	!	!	!	!	!	!	!	!	!	!	!	!	!	!	!
=69	=69	=69	=69	=69	=69	=69	=69	=69	=69	=69	=69	=69	=69	=69	=69	=69	=69	=69	=69	=69	=69	=69	=69	=69	=69	=69	=69	=69	=69	=69	=69	=69	=69	=69	=69
!	!	!	!	!	!	!	!	!	!	!	!	!	!	!LO:SIC:s=1g]	!	!	!LO:SIC:s=2b-\]	!	!	!LO:SIC:s=2ee\]	!	!	!	!	!	!	!	!	!	!	!	!	!	!	!
4C/	7_	.	4C/	.	4c\	.	8bb-L 8gg\	.	8eee\L	.	2C/	.	.	1g	.	.	(2b-\	.	.	2ee\	.	.	1ryy	2c/	.	2g\	.	4C/	.	1gg	.	2bb-\]	.	1eee	.
.	.	.	.	.	.	.	8bb- 8gg\	.	8eee\	.	.	.	.	.	.	.	.	.	.	.	.	.	.	.	.	.	.	.	.	.	.	.	.	.	.
4C/	.	.	4C/	.	4c\	.	8bb- 8gg\	.	8eee\	.	.	.	.	.	.	.	.	.	.	.	.	.	.	.	.	.	.	4C/	.	.	.	.	.	.	.
.	.	.	.	.	.	.	8bb-J 8gg\	.	8eee\J	.	.	.	.	.	.	.	.	.	.	.	.	.	.	.	.	.	.	.	.	.	.	.	.	.	.
!	!	!	!	!	!	!	!	!	!	!	!LO:SIC:s=2C#X/)	!	!	!	!	!	!LO:SIC:s=[2a\	!	!	!LO:SIC:s=([2ee\	!LO:MO:mod=a-	!	!	!	!	!	!	!	!	!	!	!	!	!	!
4C#X/	6_ 5	.	4C#X/	.	4c#X\	.	8aaL 8gg\	.	8eee\L	.	2C#X/	.	.	.	.	.	2a\)	.	.	2ee\	A-	.	.	2g\	.	2g\	.	4C#X/	.	.	.	2aa\	.	.	.
.	.	.	.	.	.	.	8aa 8gg\	.	8eee\	.	.	.	.	.	.	.	.	.	.	.	.	.	.	.	.	.	.	.	.	.	.	.	.	.	.
4C#/	.	.	4C#/	.	4c#\	.	8aa 8gg\	.	8eee\	.	.	.	.	.	.	.	.	.	.	.	.	.	.	.	.	.	.	4C#/	.	.	.	.	.	.	.
.	.	.	.	.	.	.	8aaJ 8gg\	.	8eee\J	.	.	.	.	.	.	.	.	.	.	.	.	.	.	.	.	.	.	.	.	.	.	.	.	.	.
*	*	*	*	*	*	*	*	*	*Xtremolo	*	*	*	*	*	*	*	*	*	*	*	*	*	*	*	*	*	*	*	*	*	*	*	*	*	*
!LO:LB:g=original	!	!	!	!	!	!	!LO:LB:g=original	!	!	!	!	!	!	!	!	!	!	!	!	!	!	!	!	!	!	!	!	!	!	!	!	!	!	!	!
=70	=70	=70	=70	=70	=70	=70	=70	=70	=70	=70	=70	=70	=70	=70	=70	=70	=70	=70	=70	=70	=70	=70	=70	=70	=70	=70	=70	=70	=70	=70	=70	=70	=70	=70	=70
!	!	!	!	!	!	!	!	!	!	!	!	!LO:MO:mod=-men,	!	!LO:SIC:s=2.f\)	!	!	!LO:SIC:s=2a\])	!	!	!LO:SIC:s=4ee\]	!	!	!	!	!	!	!	!	!	!	!	!	!	!	!
4D\	9 3_	.	4D\	.	4d\	.	8aaL 8ff\	.	8eee\L	.	2D\	-men	.	2.f\	.	.	2a\	.	.	(4ee\	.	.	1ryy	2f\	.	2a\	.	4D\	.	2ff\	.	2aa\	.	4eee\	.
.	.	.	.	.	.	.	8aa 8ff\	.	8eee\	.	.	.	.	.	.	.	.	.	.	.	.	.	.	.	.	.	.	.	.	.	.	.	.	.	.
4D\	8 _	.	4D\	.	4d\	.	8aa 8ff\	.	8ddd\	.	.	.	.	.	.	.	.	.	.	2dd\)	.	.	.	.	.	.	.	4D\	.	.	.	.	.	2ddd\	.
.	.	.	.	.	.	.	8aaJ 8ff\	.	8ddd\J	.	.	.	.	.	.	.	.	.	.	.	.	.	.	.	.	.	.	.	.	.	.	.	.	.	.
*	*	*	*	*	*	*	*Xtremolo	*	*	*	*	*	*	*	*	*	*	*	*	*	*	*	*	*	*	*	*	*	*	*	*	*	*	*	*
!	!	!	!	!	!	!	!	!	!	!	!LO:SIC:s=(2BB-/	!	!	!	!	!	!	!LO:MO:mod=-men,	!	!	!	!	!	!	!	!	!	!	!	!	!	!	!	!	!
4BB-\	10	.	4BB-/	.	4B-\	.	8ff\L	.	8ddd\L	.	2BB-/	a-	.	.	.	.	4b-\	-men	.	.	.	.	.	2r	.	2r	.	4BB-/	.	4dd\	.	4ff\	.	.	.
.	.	.	.	.	.	.	8ff\	.	8ddd\	.	.	.	.	.	.	.	.	.	.	.	.	.	.	.	.	.	.	.	.	.	.	.	.	.	.
!	!	!	!	!	!	!	!	!	!	!	!	!	!	!	!LO:MO:mod=-men,	!	!	!LO:MO:mod=a-	!	!	!LO:MO:mod=-men,	!	!	!	!	!	!	!	!	!	!	!	!	!	!
4BB-\	.	.	4BB-/	.	4B-\	.	8dd\	.	8bb-\	.	.	.	.	4d\	-men	.	[4f\	A-	.	4b-\	-men	.	.	.	.	.	.	4BB-/	.	4b-\	.	4dd\	.	4bb-\	.
.	.	.	.	.	.	.	8dd\J	.	8bb-\J	.	.	.	.	.	.	.	.	.	.	.	.	.	.	.	.	.	.	.	.	.	.	.	.	.	.
!	!	!	!	!	!	!	!	!	!LO:LB:g=original	!	!	!	!	!	!	!	!	!	!	!	!	!	!	!	!	!	!	!	!	!LO:LB:g=original	!	!	!	!	!
=71	=71	=71	=71	=71	=71	=71	=71	=71	=71	=71	=71	=71	=71	=71	=71	=71	=71	=71	=71	=71	=71	=71	=71	=71	=71	=71	=71	=71	=71	=71	=71	=71	=71	=71	=71
*	*	*	*	*	*	*	*tremolo	*	*tremolo	*	*	*	*	*	*	*	*	*	*	*	*	*	*	*	*	*	*	*	*	*	*	*	*	*	*
!	!	!	!	!	!	!	!	!	!	!	!	!	!	!LO:SIC:s=(2c\	!	!	!	!	!	!LO:SIC:s=(1a	!LO:MO:mod=a-	!	!	!	!	!	!	!	!	!	!	!	!	!	!
4C/	6_ 4	.	4C/	.	4c\	.	8cc\L	.	8aa\L	.	[>1C	.	.	2c\	a-	.	2f\]	.	.	1a	A-	.	1ryy	1f	.	1a	.	4C\	.	1a	.	2cc\	.	1aa	.
.	.	.	.	.	.	.	8cc\	.	8aa\	.	.	.	.	.	.	.	.	.	.	.	.	.	.	.	.	.	.	.	.	.	.	.	.	.	.
4C/	.	.	4C/	.	4c\	.	8cc\	.	8aa\	.	.	.	.	.	.	.	.	.	.	.	.	.	.	.	.	.	.	4C\	.	.	.	.	.	.	.
.	.	.	.	.	.	.	8cc\J	.	8aa\J	.	.	.	.	.	.	.	.	.	.	.	.	.	.	.	.	.	.	.	.	.	.	.	.	.	.
!	!	!	!	!	!	!	!	!	!	!	!	!	!	!	!	!	!	!LO:MO:mod=-men,	!	!	!	!	!	!	!	!	!	!	!	!	!	!	!	!	!
4C/	.	.	4C/	.	4c\	.	8ff\L	.	8aa\L	.	.	.	.	[2f\	.	.	2c\	-men	.	.	.	.	.	.	.	.	.	4C\	.	.	.	2ff\	.	.	.
.	.	.	.	.	.	.	8ff\	.	8aa\	.	.	.	.	.	.	.	.	.	.	.	.	.	.	.	.	.	.	.	.	.	.	.	.	.	.
4C/	.	.	4C/	.	4c\	.	8ff\	.	8aa\	.	.	.	.	.	.	.	.	.	.	.	.	.	.	.	.	.	.	4C\	.	.	.	.	.	.	.
.	.	.	.	.	.	.	8ff\J	.	8aa\J	.	.	.	.	.	.	.	.	.	.	.	.	.	.	.	.	.	.	.	.	.	.	.	.	.	.
=72	=72	=72	=72	=72	=72	=72	=72	=72	=72	=72	=72	=72	=72	=72	=72	=72	=72	=72	=72	=72	=72	=72	=72	=72	=72	=72	=72	=72	=72	=72	=72	=72	=72	=72	=72
*	*	*	*rep	*	*rep	*	*	*	*	*	*	*	*	*	*	*	*	*	*	*	*	*	*	*	*	*	*	*rep	*	*	*	*	*	*	*
!	!	!	!	!	!	!	!	!	!	!	!LO:SIC:s=1C])	!	!	!	!	!	!	!LO:MO:mod=a-	!	!LO:SIC:s=1g)	!	!	!	!	!	!	!	!	!	!	!	!	!	!	!
4C/	5_ 4	.	4C/	.	4c\	.	8ff\L	.	8gg\L	.	1C]	.	.	2f\]	.	.	1c	A-	.	1g	.	.	1ryy	1c	.	1g	.	4C\	.	1g	.	2ff\	.	1gg	.
.	.	.	.	.	.	.	8ff\	.	8gg\	.	.	.	.	.	.	.	.	.	.	.	.	.	.	.	.	.	.	.	.	.	.	.	.	.	.
4C/	.	.	4C/	.	4c\	.	8ff\	.	8gg\	.	.	.	.	.	.	.	.	.	.	.	.	.	.	.	.	.	.	4C\	.	.	.	.	.	.	.
.	.	.	.	.	.	.	8ff\J	.	8gg\J	.	.	.	.	.	.	.	.	.	.	.	.	.	.	.	.	.	.	.	.	.	.	.	.	.	.
!	!	!	!	!	!	!	!	!	!	!	!	!	!	!LO:SIC:s=2e\)	!	!	!	!	!	!	!	!	!	!	!	!	!	!	!	!	!	!	!	!	!
4C/	_ 3	.	4C/	.	4c\	.	8ee\L	.	8gg\L	.	.	.	.	2e\	.	.	.	.	.	.	.	.	.	.	.	.	.	4C\	.	.	.	2ee\	.	.	.
.	.	.	.	.	.	.	8ee\	.	8gg\	.	.	.	.	.	.	.	.	.	.	.	.	.	.	.	.	.	.	.	.	.	.	.	.	.	.
4C/	.	.	4C/	.	4c\	.	8ee\	.	8gg\	.	.	.	.	.	.	.	.	.	.	.	.	.	.	.	.	.	.	4C\	.	.	.	.	.	.	.
.	.	.	.	.	.	.	8ee\J	.	8gg\J	.	.	.	.	.	.	.	.	.	.	.	.	.	.	.	.	.	.	.	.	.	.	.	.	.	.
*	*	*	*Xrep	*	*Xrep	*	*	*	*Xtremolo	*	*	*	*	*	*	*	*	*	*	*	*	*	*	*	*	*	*	*Xrep	*	*	*	*	*	*	*
!	!	!	!	!	!	!	!	!	!	!	!	!	!	!LO:LB:g=original	!	!	!	!	!	!	!	!	!	!	!	!	!	!	!	!	!	!	!	!LO:LB:g=original	!
=73	=73	=73	=73	=73	=73	=73	=73	=73	=73	=73	=73	=73	=73	=73	=73	=73	=73	=73	=73	=73	=73	=73	=73	=73	=73	=73	=73	=73	=73	=73	=73	=73	=73	=73	=73
!	!	!	!	!	!	!	!	!	!	!	!	!LO:MO:mod=-men,	!	!	!LO:MO:mod=-men,	!	!	!LO:MO:mod=-men,	!	!	!LO:MO:mod=-men,	!	!	!	!	!	!	!	!	!	!	!	!	!	!
[1FF	8_	.	[>1FF	.	[1F	.	4ff\	.	4ff\	.	2F\	-men	.	2f\	-men	.	2c\	-men	.	2a\	-men	.	1ryy	4A/	.	4f\	.	4FF/	.	2a/	.	4ff\	.	4aa\	.
.	.	.	.	.	.	.	(4a\	.	(8ff\L	.	.	.	.	.	.	.	.	.	.	.	.	.	.	2F/	.	2f\	.	4c 4A\	.	.	.	8ff\L	.	8fff\L	.
.	.	.	.	.	.	.	.	.	8ee\J	.	.	.	.	.	.	.	.	.	.	.	.	.	.	.	.	.	.	.	.	.	.	8ee\J	.	8eee\J	.
.	.	.	.	.	.	.	4b-\	.	4dd\)	.	2r	.	.	2r	.	.	2r	.	.	2r	.	.	.	.	.	.	.	4d 4B-\	.	4b-/	.	4dd\	.	4ddd\	.
.	.	.	.	.	.	.	4a\	.	4cc\	.	.	.	.	.	.	.	.	.	.	.	.	.	.	4F/	.	4f\	.	4c 4A\	.	4b-/	.	4cc\	.	4ccc\	.
!	!	!	!	!	!	!	!	!	!	!	!LO:LB:g=original	!	!	!	!	!	!LO:LB:g=original	!	!	!	!	!	!	!	!	!	!	!	!	!	!	!	!	!	!
=74	=74	=74	=74	=74	=74	=74	=74	=74	=74	=74	=74	=74	=74	=74	=74	=74	=74	=74	=74	=74	=74	=74	=74	=74	=74	=74	=74	=74	=74	=74	=74	=74	=74	=74	=74
!	!	!	!	!	!	!	!	!	!	!	!LO:TX:a:t=2.:mod=	!	!	!LO:TX:a:t=2.:mod=	!	!	!LO:TX:a:t=2.:mod=	!	!	!LO:TX:a:t=2.:mod=	!	!	!	!	!	!	!	!	!	!	!	!	!	!	!
1FF]	.	.	1FF]	.	1F]	.	4b-\	.	8dd\L	.	0r	.	.	0r	.	.	0r	.	.	0r	.	.	1ryy	1F	.	1f	.	4d 4B-\	.	4b-\	.	4dd\	.	4ddd\	.
.	.	.	.	.	.	.	.	.	8ff\	.	.	.	.	.	.	.	.	.	.	.	.	.	.	.	.	.	.	.	.	.	.	.	.	.	.
.	.	.	.	.	.	.	4a\	.	8cc\	.	.	.	.	.	.	.	.	.	.	.	.	.	.	.	.	.	.	4c 4A\	.	4a\	.	4cc\	.	4ccc\	.
.	.	.	.	.	.	.	.	.	8ff\J	.	.	.	.	.	.	.	.	.	.	.	.	.	.	.	.	.	.	.	.	.	.	.	.	.	.
!	!	!	!	!	!	!	!	!	!	!	!	!	!	!	!	!	!	!	!	!	!	!	!	!	!	!	!	!LO:SIC:s=4d 4B-\	!	!	!	!	!	!	!
.	.	.	.	.	.	.	4b-\)	.	8dd\L	.	.	.	.	.	.	.	.	.	.	.	.	.	.	.	.	.	.	4d\	.	4b-\	.	4dd\	.	4ddd\	.
.	.	.	.	.	.	.	.	.	8bb-\	.	.	.	.	.	.	.	.	.	.	.	.	.	.	.	.	.	.	.	.	.	.	.	.	.	.
!	!	!	!	!	!	!	!	!	!	!	!	!	!	!	!	!	!	!	!	!	!	!	!	!	!	!	!	!	!	!LO:TX:t=g:mod=	!	!	!	!	!
.	.	.	.	.	.	.	4g\	.	8ee\	.	.	.	.	.	.	.	.	.	.	.	.	.	.	.	.	.	.	4B- 4G\	.	4g\	.	4ee\	.	4bb-\	.
.	.	.	.	.	.	.	.	.	8bb-\J	.	.	.	.	.	.	.	.	.	.	.	.	.	.	.	.	.	.	.	.	.	.	.	.	.	.
!	!	!	!	!	!	!	!	!	!	!	!	!	!	!	!	!	!	!	!	!	!	!	!	!	!	!	!	!	!	!	!	!LO:LB:g=original	!	!	!
=75	=75	=75	=75	=75	=75	=75	=75	=75	=75	=75	=75	=75	=75	=75	=75	=75	=75	=75	=75	=75	=75	=75	=75	=75	=75	=75	=75	=75	=75	=75	=75	=75	=75	=75	=75
4FF/	.	.	4FF/	.	4F/	.	4a\	.	4aa\	.	.	.	.	.	.	.	.	.	.	.	.	.	1ryy	1F	.	1f	.	4A 4F\	.	4a\	.	4ff\	.	4aa\	.
4r	X	.	4r	.	8aL 8f\	.	8ff\L	.	8aa\L	.	.	.	.	.	.	.	.	.	.	.	.	.	.	.	.	.	.	8AL 8F\	.	8f\L	.	8a\L	.	8aa\L	.
.	.	.	.	.	8b-J 8g\	.	8gg\J	.	8bb-\J	.	.	.	.	.	.	.	.	.	.	.	.	.	.	.	.	.	.	8B-J 8G\	.	8g\J	.	8b-\J	.	8bb-\J	.
2r	.	.	2r	.	4bn 4g#X\	.	4gg#X\	.	4bbn\	.	.	.	.	.	.	.	.	.	.	.	.	.	.	.	.	.	.	4Bn 4G#X\	.	4g#X\	.	4bn\	.	4bbn\	.
.	.	.	.	.	4cc 4a\	.	4aa\	.	4ccc\	.	.	.	.	.	.	.	.	.	.	.	.	.	.	.	.	.	.	4c 4A\	.	4a\	.	4cc\	.	4ccc\	.
!	!	!	!LO:LB:g=original	!	!LO:LB:g=original	!	!	!	!	!	!	!	!	!	!	!	!	!	!	!LO:LB:g=original	!	!	!	!	!	!	!	!LO:LB:g=original	!	!	!	!	!	!	!
=76	=76	=76	=76	=76	=76	=76	=76	=76	=76	=76	=76	=76	=76	=76	=76	=76	=76	=76	=76	=76	=76	=76	=76	=76	=76	=76	=76	=76	=76	=76	=76	=76	=76	=76	=76
!	!	!	!	!	!	!LO:MO:null:mod=>]	!	!	!	!	!LO:SIC:s=(1BB-	!	!	!LO:SIC:s=([1B-	!	!	!	!LO:MO:mod=a-	!	!LO:SIC:s=([1dd	!LO:MO:mod=a-	!	!	!	!	!	!	!LO:SIC:s=4d 4B-\	!	!	!	!	!	!	!
4r	10_	.	4r	.	1dd 1b-	.	1bb-	>]	[1ddd	>	1BB-	a-	.	1B-	a-	.	[1f	A-	.	1dd	A-	.	1ryy	1F	.	1f	.	4d 4B-X\	.	1b-	.	1dd	.	1ddd	.
!	!	!	!	!	!	!	!	!	!	!	!	!	!	!	!	!	!	!	!	!	!	!	!	!	!	!	!	!LO:TX:a:t= :mod=a 2	!	!	!	!	!	!	!
8BB-/L	.	.	(8BB-/L	.	.	.	.	.	.	.	.	.	.	.	.	.	.	.	.	.	.	.	.	.	.	.	.	8BB-/L	.	.	.	.	.	.	.
8C/J	.	.	8C/J)	.	.	.	.	.	.	.	.	.	.	.	.	.	.	.	.	.	.	.	.	.	.	.	.	8C/J	.	.	.	.	.	.	.
4D\	.	.	4D/	.	.	.	.	.	.	.	.	.	.	.	.	.	.	.	.	.	.	.	.	.	.	.	.	4D\	.	.	.	.	.	.	.
8BB-\L	.	.	8BB-/L	.	.	.	.	.	.	.	.	.	.	.	.	.	.	.	.	.	.	.	.	.	.	.	.	8BB-\L	.	.	.	.	.	.	.
8C\J	.	.	8C/J	.	.	.	.	.	.	]	.	.	.	.	.	.	.	.	.	.	.	.	.	.	.	.	.	8C\J	.	.	.	.	.	.	.
!	!	!	!	!	!	!	!LO:LB:g=original	!	!	!	!	!	!	!	!	!	!	!	!	!	!	!	!	!	!	!	!	!	!	!	!	!	!	!	!
=77	=77	=77	=77	=77	=77	=77	=77	=77	=77	=77	=77	=77	=77	=77	=77	=77	=77	=77	=77	=77	=77	=77	=77	=77	=77	=77	=77	=77	=77	=77	=77	=77	=77	=77	=77
!	!	!	!	!	!	!	!	!	!	!	!	!	!	!LO:SIC:s=2..B-\]	!	!	!LO:SIC:s=1f_	!	!	!LO:SIC:s=2..dd\]	!	!	!	!	!	!	!	!	!	!	!	!	!	!	!
2D\	.	.	2D\	.	2..dd 2..b-\	.	2..bb-\	.	2..ddd\]	.	2D/	.	.	2..B-\	.	.	1f]	.	.	2..dd\	.	.	1ryy	2..F/	.	2..f\	.	2D\	.	2..b-\	.	2..dd\	.	2..ddd\	.
(4.BB-/	X	.	4.BB-/	.	.	.	.	.	.	.	4.BB-/	.	.	.	.	.	.	.	.	.	.	.	.	.	.	.	.	4.BB-/	.	.	.	.	.	.	.
!	!	!	!	!	!	!	!	!	!	!	!LO:SIC:s=[8F [8FF/	!	!	!LO:SIC:s=[8A\	!	!	!	!	!	!LO:SIC:s=[8cc\	!	!	!	!	!	!	!	!	!	!LO:TX:t=a:mod=	!	!LO:TX:a:t=c:mod=	!	!	!
8FF/)	5_	[[	8FF/	[[	8cc 8a\	.	8aa\	]]	8ccc\	.	8F 8FF/	.	[[	8A\	.	.	.	.	.	8cc\	.	.	.	8F/	.	8f\	.	8FF/	.	8a\	.	8cc\	.	16fff\	.
.	.	.	.	.	.	.	.	.	.	.	.	.	.	.	.	.	.	.	.	.	.	.	.	.	.	.	.	.	.	.	.	.	.	16ryy	.
!	!	!	!	!	!	!	!	!	!LO:LB:g=original	!	!	!	!	!	!	!	!	!	!	!	!	!	!	!LO:LB:g=original	!	!	!	!	!	!	!	!	!	!	!
=78	=78	=78	=78	=78	=78	=78	=78	=78	=78	=78	=78	=78	=78	=78	=78	=78	=78	=78	=78	=78	=78	=78	=78	=78	=78	=78	=78	=78	=78	=78	=78	=78	=78	=78	=78
!	!	!	!	!LO:MO:mod=!null:null	!	!	!	!	!	!	!	!	!	!	!	!	!	!	!	!	!	!	!	!	!	!	!	!	!	!	!	!	!	!	!
!	!	!	!	!LO:HP:a	!	!	!LO:SIC:s=[1aa	!LO:MO:mod=<[	!	!	!LO:SIC:s=1F] 1FF])	!	!	!LO:SIC:s=1A])	!	!	!LO:SIC:s=1f]	!	!	!LO:SIC:s=1cc])	!	!	!	!	!	!	!	!	!	!	!	!	!	!LO:SIC:s=1fff	!
!	!	!	!	!LO:MO:mod=<[	!	!LO:MO:null:mod=<[	!	!	!	!	!	!	!LO:MO:mod=<[	!	!	!LO:MO:null:mod=<[	!	!	!LO:MO:null:mod=<[	!	!	!LO:MO:null:mod=<[	!	!	!	!	!	!	!	!	!	!	!	!	!
1FF	.	<	[>1FF	<	[1cc [>1a	.	1aa	<	[1ccc	<[	1F 1FF	.	<	1A	.	.	1f	.	.	[1cc	.	.	1ryy	1F	.	1f	.	1FF	.	1a	.	1cc	.	1fff^<	.
!	!	!	!	!	!	!	!	!LO:MO:mod=.	!	!	!	!	!	!	!	!	!	!	!	!	!	!	!	!	!	!	!	!	!	!	!	!	!	!	!
.	.	.	.	[	.	.	.	[	.	.	.	.	[	.	.	.	.	.	.	.	.	.	.	.	.	.	.	.	.	.	.	.	.	.	.
!	!	!	!	!LO:HP:a	!	!	!	!LO:MO:mod=.	!	!	!	!	!	!	!	!	!	!	!	!	!	!	!	!	!	!	!	!	!	!	!	!	!	!	!
!	!	!	!	!LO:MO:mod=.	!	!	!	!	!	!	!	!	!LO:MO:mod=.	!	!	!	!	!	!	!	!	!	!	!	!	!	!	!	!	!	!	!	!	!	!
.	.	.	.	>	.	.	.	>	.	.	.	.	>	.	.	.	.	.	.	.	.	.	.	.	.	.	.	.	.	.	.	.	.	.	.
!	!	!	!	!	!	!	!	!LO:MO:mod=.	!	!	!	!	!	!	!	!	!	!	!	!	!	!	!	!	!	!	!	!	!	!	!	!	!	!	!
.	.	[[	.	]	.	.	.	]	.	.	.	.	]	.	.	.	.	.	.	.	.	.	.	.	.	.	.	.	.	.	.	.	.	.	.
=79	=79	=79	=79	=79	=79	=79	=79	=79	=79	=79	=79	=79	=79	=79	=79	=79	=79	=79	=79	=79	=79	=79	=79	=79	=79	=79	=79	=79	=79	=79	=79	=79	=79	=79	=79
!	!	!	!	!LO:MO:null:mod=>]	!	!LO:MO:null:mod=>]	!LO:SIC:s=2aa\]	!LO:MO:null:mod=>]	!	!	!	!LO:MO:mod=-men.	!LO:MO:null:mod=>]	!	!LO:MO:mod=-men.	!LO:MO:null:mod=>]	!	!LO:MO:mod=-men.	!LO:MO:null:mod=>]	!LO:SIC:s=2cc\	!	!LO:MO:null:mod=>]	!	!	!	!	!	!	!	!LO:MO:mod=2a/	!	!	!	!	!
2FF/	.	>	2FF/]	.	2cc] 2a\]	.	2aa\	.	2ccc\]	>	2F 2FF/	-men	.	2A\	-men	.	2f\	-men	.	2cc\]	-men.	.	1ryy	2F\	.	2f\	.	2FF/	.	2.a/	.	2cc\	.	2fff\	.
.	.	.	.	.	.	.	.	.	.	.	.	.	.	.	.	.	.	.	.	.	.	.	.	.	.	.	.	.	.	.	.	.	.	.	.
!LO:SIC:s=2r;	!	!	!LO:SIC:s=2r;	!	!LO:SIC:s=2r;	!	!LO:SIC:s=2r;	!	!LO:SIC:s=2r;	!	!LO:SIC:s=2r;	!	!	!	!	!	!	!	!	!	!	!	!	!LO:SIC:s=2r;	!	!LO:SIC:s=2r;	!	!LO:SIC:s=2r;	!	!LO:MO:null:mod=2r;	!	!LO:SIC:s=2r;	!	!LO:SIC:s=2r;	!
2r	X	]	2r	.	2r	.	2r	.	2r	]	2r	.	.	2r;	.	.	2r;	.	.	2r;	.	.	.	2r	.	2r	.	2r	.	.	.	2r	.	2r	.
!	!	!	!	!	!	!	!	!	!	!	!	!	!	!	!	!	!	!	!	!	!	!	!	!	!	!	!	!	!	!LO:MO:mod=.	!	!	!	!	!
.	.	.	.	.	.	.	.	.	.	.	.	.	.	.	.	.	.	.	.	.	.	.	.	.	.	.	.	.	.	4r	.	.	.	.	.
!	!	!	!	!	!	!	!	!	!	!	!	!	!	!LO:TX:b:t=V&colon; S&colon;:mod=	!	!	!	!	!	!	!	!	!	!	!	!	!	!	!	!	!	!	!	!	!
==	==	==	==	==	==	==	==	==	==	==	==	==	==	==	==	==	==	==	==	==	==	==	==	==	==	==	==	==	==	==	==	==	==	==	==
*-	*-	*-	*-	*-	*-	*-	*-	*-	*-	*-	*-	*-	*-	*-	*-	*-	*-	*-	*-	*-	*-	*-	*-	*-	*-	*-	*-	*-	*-	*-	*-	*-	*-	*-	*-
!!!system-decoration: [(g1)][(g2)][(g3)][(g4)][(g5)]g6
!!!RDF**kern: >= above
!!!RDF**kern: <= below
!!!filter-modern: sic -sq | shed -e "s/LO:DY:(a|b|rj)/LO:dy:$1/L" | autostem -r | tie -s | shed -e "s/^(X?)rep$/$1REP/I" | shed -e "s/t=P:/T=P:/L" | shed -k -e "s/([\(\)\[\]])[><]/$1/g" | shed -e "s/N:vis=/N:VIS=/L" | shed -e "s/^(\d+[\/\\]right)/$1yy/I; s/^(\d+[\/\\]left)/$1yy/I" | modori -m
!!!ENC: Anna Matuszewska
!!!END: 2020-05-31
!!!ENC-modern: Katarzyna Serwa
!!!END-modern: 2022-07-07
